Console Band (OpenGL style) V3/Textures/cold.CUBE
#Created by: Adobe Photoshop Export Color Lookup Plugin
TITLE "cold"
#LUT size
LUT_3D_SIZE 32
#data domain
DOMAIN_MIN 0.0 0.0 0.0
DOMAIN_MAX 1.0 1.0 1.0
#LUT data points
0.000000 0.000000 0.000000
0.020721 0.013031 0.005249
0.041321 0.025970 0.010406
0.061768 0.038818 0.015472
0.082123 0.051636 0.020447
0.102325 0.064331 0.025330
0.122467 0.076996 0.030090
0.142456 0.089539 0.034790
0.162354 0.102020 0.039368
0.182068 0.114410 0.043823
0.201691 0.126709 0.048248
0.221222 0.138977 0.052582
0.240631 0.151154 0.056763
0.259888 0.163239 0.060883
0.279083 0.175262 0.064911
0.298035 0.187134 0.068848
0.316681 0.198822 0.072601
0.335022 0.210297 0.076294
0.352905 0.221497 0.079773
0.370270 0.232391 0.083099
0.387054 0.242889 0.086273
0.403198 0.252991 0.089264
0.418610 0.262634 0.092072
0.433258 0.271790 0.094666
0.446991 0.280396 0.097076
0.459869 0.288422 0.099274
0.471741 0.295868 0.101318
0.482574 0.302643 0.103119
0.492310 0.308716 0.104675
0.500793 0.314026 0.106079
0.508087 0.318573 0.107239
0.514008 0.322266 0.108185
0.004303 0.017334 0.010345
0.013214 0.017334 0.005280
0.036407 0.032288 0.010529
0.056976 0.045135 0.015656
0.077423 0.057922 0.020721
0.097717 0.070648 0.025665
0.117950 0.083282 0.030518
0.138000 0.095825 0.035217
0.157990 0.108307 0.039886
0.177826 0.120697 0.044464
0.197510 0.132996 0.048920
0.217133 0.145264 0.053314
0.236633 0.157410 0.057587
0.255981 0.169495 0.061798
0.275238 0.181519 0.065887
0.294281 0.193390 0.069855
0.313049 0.205078 0.073730
0.331451 0.216583 0.077454
0.349396 0.227753 0.080994
0.366882 0.238617 0.084412
0.383759 0.249115 0.087616
0.399933 0.259247 0.090698
0.415436 0.268890 0.093536
0.430145 0.278046 0.096191
0.443970 0.286652 0.098694
0.456879 0.294647 0.100922
0.468811 0.302094 0.102997
0.479706 0.308868 0.104828
0.489502 0.314911 0.106445
0.498047 0.320251 0.107880
0.505341 0.324799 0.109070
0.511322 0.328522 0.110046
0.569519 0.571991 0.689301
0.569519 0.571991 0.689301
0.569519 0.571991 0.689301
0.569519 0.571991 0.689301
0.569519 0.571991 0.689301
0.569519 0.571991 0.689301
0.569519 0.571991 0.689301
0.570099 0.572449 0.688202
0.569519 0.572449 0.688202
0.571075 0.573395 0.689728
0.570587 0.573151 0.688446
0.570587 0.573151 0.688446
0.570587 0.573151 0.688446
0.570068 0.572876 0.687134
0.570618 0.572876 0.687134
0.569061 0.571930 0.685577
0.569122 0.571655 0.684235
0.566925 0.569885 0.682404
0.566467 0.568848 0.680786
0.564178 0.566467 0.680084
0.560516 0.563324 0.676422
0.558044 0.560944 0.672974
0.553741 0.557129 0.671814
0.548401 0.553772 0.669373
0.542938 0.548859 0.665039
0.535950 0.543365 0.664185
0.527649 0.540192 0.663361
0.515594 0.530701 0.655975
0.511688 0.526733 0.652191
0.506317 0.523224 0.649689
0.497437 0.518829 0.648315
0.492004 0.515808 0.645477
0.570587 0.573151 0.688446
0.570068 0.572723 0.689514
0.569519 0.572449 0.688202
0.570099 0.572449 0.688202
0.570099 0.572449 0.688202
0.570099 0.572449 0.688202
0.570099 0.572449 0.688202
0.570099 0.572449 0.688202
0.570099 0.572449 0.688202
0.570068 0.572723 0.689514
0.569519 0.572449 0.688202
0.570587 0.573151 0.688446
0.570587 0.573151 0.688446
0.570587 0.573151 0.688446
0.570587 0.573151 0.688446
0.570587 0.573151 0.688446
0.570068 0.572876 0.687134
0.570068 0.572876 0.687134
0.570068 0.572876 0.687134
0.570068 0.572876 0.687134
0.570099 0.572601 0.685822
0.569061 0.571930 0.685577
0.568024 0.570923 0.684021
0.566925 0.569885 0.682404
0.566467 0.568848 0.680786
0.564758 0.567291 0.680298
0.562469 0.565063 0.677002
0.558044 0.560944 0.672974
0.552979 0.556152 0.671509
0.546143 0.551361 0.667236
0.540344 0.546631 0.664490
0.533356 0.542725 0.664185
0.570557 0.572968 0.690765
0.570557 0.572968 0.690765
0.570557 0.572968 0.690765
0.570557 0.572968 0.690765
0.570557 0.572968 0.690765
0.570557 0.572968 0.690765
0.570557 0.572968 0.690765
0.570557 0.572968 0.690765
0.570557 0.572968 0.690765
0.571564 0.573639 0.690979
0.571564 0.573639 0.690979
0.571564 0.573639 0.690979
0.571564 0.573639 0.690979
0.571564 0.573639 0.690979
0.571564 0.573639 0.690979
0.571564 0.573639 0.690979
0.571075 0.573395 0.689728
0.571075 0.573395 0.689728
0.571075 0.573395 0.689728
0.571075 0.573395 0.689728
0.572144 0.574097 0.689941
0.571655 0.573853 0.688660
0.570587 0.573151 0.688446
0.570587 0.573151 0.688446
0.570068 0.572876 0.687134
0.570618 0.572876 0.687134
0.569061 0.571930 0.685577
0.568542 0.571655 0.684235
0.568024 0.570923 0.684021
0.568024 0.570923 0.684021
0.566925 0.569885 0.682404
0.567047 0.569153 0.682159
0.572601 0.574615 0.692444
0.572601 0.574615 0.692444
0.571533 0.573914 0.692261
0.571533 0.573914 0.692261
0.571564 0.573639 0.690979
0.571014 0.573639 0.690979
0.571564 0.573639 0.690979
0.571564 0.573639 0.690979
0.571564 0.573639 0.690979
0.571564 0.573639 0.690979
0.571564 0.573639 0.690979
0.571564 0.573639 0.690979
0.571564 0.573639 0.690979
0.571564 0.573639 0.690979
0.571014 0.573639 0.690979
0.571564 0.573639 0.690979
0.571564 0.573639 0.690979
0.571564 0.573639 0.690979
0.571564 0.573639 0.690979
0.571564 0.573639 0.690979
0.572113 0.574371 0.691223
0.572113 0.574371 0.691223
0.572113 0.574371 0.691223
0.572113 0.574371 0.691223
0.572113 0.574371 0.691223
0.571594 0.574097 0.689941
0.571594 0.574097 0.689941
0.571594 0.574097 0.689941
0.571594 0.574097 0.689941
0.571594 0.574097 0.689941
0.571594 0.574097 0.689941
0.571106 0.573853 0.688660
0.573090 0.574860 0.693665
0.573090 0.574860 0.693665
0.573090 0.574860 0.693665
0.573090 0.574860 0.693665
0.573090 0.574860 0.693665
0.572601 0.574615 0.692444
0.572601 0.574615 0.692444
0.572601 0.574615 0.692444
0.572601 0.574615 0.692444
0.572601 0.574615 0.692444
0.572601 0.574615 0.692444
0.572601 0.574615 0.692444
0.572601 0.574615 0.692444
0.572601 0.574615 0.692444
0.572601 0.574615 0.692444
0.572601 0.574615 0.692444
0.572601 0.574615 0.692444
0.572601 0.574615 0.692444
0.572601 0.574615 0.692444
0.572601 0.574615 0.692444
0.572601 0.574615 0.692444
0.572601 0.574615 0.692444
0.572601 0.574615 0.692444
0.572601 0.574615 0.692444
0.572601 0.574615 0.692444
0.572601 0.574615 0.692444
0.572601 0.574615 0.692444
0.572601 0.574615 0.692444
0.572113 0.574371 0.691223
0.572113 0.574371 0.691223
0.572113 0.574371 0.691223
0.572601 0.574615 0.692444
0.572479 0.574402 0.694672
0.573547 0.575104 0.694885
0.573547 0.575104 0.694885
0.573547 0.575104 0.694885
0.573547 0.575104 0.694885
0.574554 0.575775 0.695068
0.574554 0.575775 0.695068
0.574097 0.575531 0.693878
0.574097 0.575531 0.693878
0.574097 0.575531 0.693878
0.573090 0.574860 0.693665
0.573090 0.574860 0.693665
0.572601 0.574615 0.692444
0.572601 0.574615 0.692444
0.572601 0.574615 0.692444
0.572601 0.574615 0.692444
0.572601 0.574615 0.692444
0.572601 0.574615 0.692444
0.572601 0.574615 0.692444
0.572601 0.574615 0.692444
0.572601 0.574615 0.692444
0.572601 0.574615 0.692444
0.572601 0.574615 0.692444
0.572601 0.574615 0.692444
0.573090 0.574860 0.693665
0.572601 0.574615 0.692444
0.572601 0.574615 0.692444
0.572601 0.574615 0.692444
0.572601 0.574615 0.692444
0.572601 0.574615 0.692444
0.572601 0.574615 0.692444
0.572601 0.574615 0.692444
0.574036 0.575348 0.696106
0.573547 0.575104 0.694885
0.574036 0.575348 0.696106
0.573547 0.575104 0.694885
0.574493 0.576019 0.696289
0.574005 0.575775 0.695068
0.574005 0.575775 0.695068
0.574005 0.575775 0.695068
0.574554 0.575775 0.695068
0.574554 0.575775 0.695068
0.573547 0.575104 0.694885
0.573547 0.575104 0.694885
0.573547 0.575104 0.694885
0.573547 0.575104 0.694885
0.573547 0.575104 0.694885
0.573547 0.575104 0.694885
0.573547 0.575104 0.694885
0.573090 0.574860 0.693665
0.573547 0.575104 0.694885
0.573547 0.575104 0.694885
0.573547 0.575104 0.694885
0.573547 0.575104 0.694885
0.573547 0.575104 0.694885
0.573547 0.575104 0.694885
0.573547 0.575104 0.694885
0.573090 0.574860 0.693665
0.573090 0.574860 0.693665
0.573090 0.574860 0.693665
0.574097 0.575531 0.693878
0.574097 0.575531 0.693878
0.574097 0.575531 0.693878
0.574097 0.575531 0.693878
0.575043 0.576019 0.696289
0.575043 0.576019 0.696289
0.575043 0.576019 0.696289
0.575043 0.576019 0.696289
0.575043 0.576019 0.696289
0.575043 0.576019 0.696289
0.574005 0.575775 0.695068
0.574005 0.575775 0.695068
0.574005 0.575775 0.695068
0.574005 0.575775 0.695068
0.574005 0.575775 0.695068
0.574005 0.575775 0.695068
0.574005 0.575775 0.695068
0.574005 0.575775 0.695068
0.574005 0.575775 0.695068
0.574005 0.575775 0.695068
0.574005 0.575775 0.695068
0.574005 0.575775 0.695068
0.574005 0.575775 0.695068
0.574005 0.575775 0.695068
0.574005 0.575775 0.695068
0.574005 0.575775 0.695068
0.574554 0.575775 0.695068
0.574097 0.575531 0.693878
0.574097 0.575531 0.693878
0.574097 0.575531 0.693878
0.574097 0.575531 0.693878
0.574097 0.575531 0.693878
0.574097 0.575531 0.693878
0.574097 0.575531 0.693878
0.573608 0.575287 0.692688
0.573608 0.575287 0.692688
0.574036 0.575348 0.696106
0.574036 0.575348 0.696106
0.573547 0.575104 0.694885
0.573547 0.575104 0.694885
0.573547 0.575104 0.694885
0.573547 0.575104 0.694885
0.574005 0.575775 0.695068
0.574005 0.575775 0.695068
0.573547 0.575104 0.694885
0.574005 0.575775 0.695068
0.574005 0.575775 0.695068
0.573547 0.575531 0.693878
0.573547 0.575531 0.693878
0.574097 0.575531 0.693878
0.574097 0.575531 0.693878
0.574097 0.575531 0.693878
0.574097 0.575531 0.693878
0.573608 0.575287 0.692688
0.573608 0.575287 0.692688
0.573608 0.575287 0.692688
0.573608 0.575287 0.692688
0.573608 0.575287 0.692688
0.572113 0.574371 0.691223
0.572113 0.574371 0.691223
0.572113 0.574371 0.691223
0.572113 0.574371 0.691223
0.571594 0.574097 0.689941
0.571594 0.574097 0.689941
0.571594 0.574097 0.689941
0.571655 0.573853 0.688660
0.570587 0.573151 0.688446
0.570587 0.573151 0.688446
0.573547 0.575104 0.694885
0.574005 0.575775 0.695068
0.573547 0.575531 0.693878
0.574097 0.575531 0.693878
0.574097 0.575531 0.693878
0.574097 0.575531 0.693878
0.572601 0.574615 0.692444
0.573608 0.575287 0.692688
0.573608 0.575287 0.692688
0.572601 0.574615 0.692444
0.572113 0.574371 0.691223
0.572113 0.574371 0.691223
0.572113 0.574371 0.691223
0.572113 0.574371 0.691223
0.571594 0.574097 0.689941
0.571594 0.574097 0.689941
0.571594 0.574097 0.689941
0.572144 0.574097 0.689941
0.572144 0.574097 0.689941
0.570587 0.573151 0.688446
0.569580 0.572174 0.686890
0.569580 0.572174 0.686890
0.569061 0.571930 0.685577
0.568542 0.571198 0.685364
0.568024 0.570923 0.684021
0.566895 0.570190 0.683777
0.566895 0.570190 0.683777
0.566895 0.570190 0.683777
0.566895 0.570190 0.683777
0.566895 0.570190 0.683777
0.568542 0.571198 0.685364
0.568024 0.570923 0.684021
0.572601 0.574615 0.692444
0.572601 0.574615 0.692444
0.572601 0.574615 0.692444
0.572113 0.574371 0.691223
0.572113 0.574371 0.691223
0.571594 0.574097 0.689941
0.571075 0.573395 0.689728
0.570587 0.573151 0.688446
0.569000 0.572174 0.686890
0.569061 0.571930 0.685577
0.567413 0.570923 0.684021
0.369598 0.431091 0.478363
0.339630 0.404572 0.450562
0.322052 0.389465 0.433807
0.305664 0.363190 0.404022
0.259125 0.311249 0.348633
0.242340 0.291351 0.332611
0.239716 0.280853 0.320496
0.234467 0.267700 0.307068
0.234467 0.275604 0.316010
0.271118 0.335571 0.374023
0.248901 0.341522 0.377075
0.246185 0.346527 0.376740
0.250397 0.347565 0.376831
0.256195 0.347107 0.377625
0.258820 0.349670 0.382751
0.258820 0.349670 0.382751
0.257080 0.358582 0.390625
0.259186 0.359100 0.394531
0.263092 0.374817 0.411713
0.283386 0.424438 0.477020
0.264679 0.404968 0.453888
0.261261 0.383301 0.417389
0.266052 0.362701 0.393890
0.239685 0.296600 0.326630
0.252350 0.299744 0.326782
0.251801 0.305511 0.332428
0.277374 0.376556 0.408844
0.286041 0.403473 0.438202
0.288147 0.403992 0.428558
0.355255 0.451752 0.482086
0.329956 0.421204 0.448944
0.259125 0.319061 0.341919
0.259521 0.336548 0.362671
0.269623 0.369110 0.403290
0.265320 0.336060 0.365417
0.230804 0.276672 0.297729
0.238129 0.282440 0.302246
0.237610 0.280334 0.297089
0.230347 0.261932 0.279236
0.226044 0.240875 0.263092
0.222565 0.220734 0.237396
0.222870 0.218628 0.234161
0.222443 0.216309 0.228546
0.228760 0.216492 0.228241
0.231079 0.221161 0.234589
0.221313 0.222992 0.243011
0.219666 0.226685 0.251465
0.218201 0.251404 0.266296
0.271057 0.343231 0.373047
0.294189 0.412323 0.452393
0.258057 0.322693 0.350220
0.251312 0.295563 0.314575
0.249725 0.297150 0.321625
0.486877 0.387970 0.237427
0.487732 0.391785 0.241058
0.489471 0.397278 0.245239
0.490967 0.399170 0.248077
0.490967 0.399170 0.248077
0.490082 0.397461 0.247467
0.490082 0.397461 0.247467
0.490417 0.396484 0.247009
0.490417 0.396484 0.247009
0.487427 0.390259 0.242615
0.486572 0.384369 0.236023
0.484955 0.384552 0.236267
0.484955 0.384552 0.236267
0.485260 0.385681 0.238892
0.486542 0.386475 0.239044
0.487213 0.384552 0.238190
0.487427 0.390259 0.242615
0.490417 0.396484 0.247009
0.492188 0.399475 0.252380
0.491577 0.399323 0.250214
0.490967 0.399170 0.248077
0.490967 0.399170 0.248077
0.489777 0.398438 0.247894
0.490082 0.397461 0.247467
0.489471 0.397278 0.245239
0.490417 0.396484 0.247009
0.490417 0.396484 0.247009
0.488892 0.394623 0.244263
0.488892 0.394623 0.244263
0.489471 0.397278 0.245239
0.490906 0.401245 0.251099
0.492950 0.405457 0.259125
0.495300 0.519257 0.435669
0.467926 0.395599 0.271454
0.477509 0.394501 0.265289
0.482819 0.394745 0.271240
0.483276 0.394196 0.266510
0.482574 0.397980 0.259521
0.484863 0.400543 0.260284
0.489288 0.405121 0.266052
0.490479 0.408051 0.269318
0.492554 0.410461 0.270081
0.494324 0.413483 0.275543
0.496094 0.414368 0.277924
0.497223 0.417236 0.281219
0.496307 0.418091 0.279480
0.496796 0.420776 0.280609
0.496796 0.420776 0.280609
0.496490 0.421783 0.281097
0.495850 0.423798 0.282043
0.497253 0.425659 0.284912
0.498688 0.425262 0.284485
0.498688 0.425262 0.284485
0.498688 0.425262 0.284485
0.498688 0.425262 0.284485
0.499329 0.423248 0.283508
0.499329 0.423248 0.283508
0.499329 0.423248 0.283508
0.499329 0.423248 0.283508
0.499329 0.423248 0.283508
0.499329 0.423248 0.283508
0.498718 0.423065 0.281342
0.496979 0.424408 0.282166
0.498810 0.424988 0.288849
0.516937 0.532806 0.513702
0.506348 0.521881 0.455841
0.492523 0.446136 0.354187
0.490021 0.436005 0.335968
0.496857 0.440613 0.359711
0.502106 0.445862 0.379456
0.489807 0.437469 0.332123
0.486359 0.432739 0.319092
0.487244 0.460876 0.322266
0.483246 0.424683 0.302246
0.491547 0.437988 0.322937
0.497040 0.443268 0.329010
0.497620 0.446014 0.330231
0.501465 0.446686 0.334412
0.503632 0.452789 0.336945
0.503723 0.454254 0.335327
0.504181 0.456940 0.336517
0.506500 0.460114 0.344543
0.508759 0.463257 0.352600
0.508881 0.467010 0.354401
0.509277 0.469666 0.355621
0.510834 0.471161 0.363007
0.511810 0.473938 0.366516
0.512756 0.472229 0.363129
0.512756 0.474518 0.366577
0.513092 0.475677 0.369446
0.513092 0.475677 0.369446
0.512543 0.477753 0.370544
0.513489 0.479095 0.375763
0.512939 0.481140 0.376892
0.514740 0.481659 0.383759
0.515137 0.485016 0.390106
0.474152 0.403839 0.292023
0.467377 0.382629 0.261566
0.473602 0.389496 0.268036
0.476349 0.388580 0.269440
0.484589 0.395325 0.277740
0.488037 0.399658 0.279144
0.486633 0.403229 0.269958
0.487030 0.404785 0.268402
0.490143 0.406494 0.270874
0.490112 0.408661 0.274048
0.491638 0.413086 0.275787
0.492767 0.416016 0.279083
0.493622 0.417694 0.279724
0.495453 0.418579 0.282043
0.496857 0.420471 0.284912
0.498291 0.422302 0.287720
0.497681 0.424316 0.288696
0.497345 0.425323 0.289185
0.499084 0.426208 0.291534
0.498474 0.428223 0.292542
0.500183 0.429047 0.294922
0.499878 0.430054 0.295410
0.499878 0.430054 0.295410
0.499878 0.430054 0.295410
0.500183 0.429047 0.294922
0.499084 0.426208 0.291534
0.500183 0.429047 0.294922
0.500458 0.430237 0.297607
0.501862 0.429840 0.297211
0.501556 0.433136 0.300995
0.500000 0.433807 0.297058
0.501221 0.436371 0.304779
0.502991 0.429138 0.283356
0.502686 0.430176 0.283844
0.502655 0.432404 0.287079
0.502655 0.432404 0.287079
0.502655 0.432404 0.287079
0.502655 0.432404 0.287079
0.502655 0.432404 0.287079
0.503052 0.432831 0.284973
0.502441 0.434875 0.285919
0.502441 0.434875 0.285919
0.501801 0.434692 0.283691
0.501801 0.434692 0.283691
0.501495 0.435730 0.284180
0.501709 0.429596 0.283783
0.502014 0.428589 0.283295
0.501709 0.429596 0.283783
0.501404 0.428406 0.281067
0.500763 0.428223 0.278778
0.500366 0.425598 0.277740
0.500366 0.425598 0.277740
0.499756 0.425415 0.275482
0.498108 0.424622 0.273193
0.498108 0.424622 0.273193
0.498413 0.425781 0.275818
0.499756 0.425415 0.275482
0.499756 0.425415 0.275482
0.500092 0.424377 0.275024
0.500092 0.424377 0.275024
0.499146 0.427429 0.276459
0.499451 0.426392 0.275970
0.499359 0.422760 0.274445
0.496643 0.419128 0.268799
0.255951 0.322144 0.357910
0.285370 0.392853 0.431580
0.277802 0.409912 0.457092
0.333801 0.452484 0.504669
0.483307 0.539551 0.609741
0.469299 0.529999 0.589142
0.336884 0.464905 0.512115
0.290497 0.421356 0.468292
0.290497 0.381622 0.419861
0.252869 0.301880 0.335815
0.248688 0.292938 0.311340
0.237610 0.288239 0.294312
0.234741 0.279297 0.286987
0.236694 0.274048 0.290222
0.238281 0.274048 0.290222
0.243561 0.271393 0.286987
0.246185 0.274048 0.290222
0.247742 0.271912 0.289581
0.246155 0.271912 0.289581
0.246185 0.274048 0.290222
0.247223 0.274567 0.292816
0.235535 0.242981 0.263733
0.233459 0.237732 0.257294
0.229248 0.235107 0.254059
0.224976 0.236145 0.259186
0.227631 0.242981 0.263733
0.240845 0.260345 0.281189
0.237152 0.267181 0.285675
0.241425 0.271912 0.289581
0.268341 0.348267 0.378540
0.289337 0.400848 0.439941
0.269836 0.354279 0.388000
0.397064 0.433167 0.552612
0.212097 0.328552 0.385834
0.163879 0.206360 0.254547
0.269867 0.425812 0.487488
0.271118 0.430817 0.496216
0.275299 0.431854 0.492462
0.266907 0.429749 0.488525
0.261383 0.431458 0.492279
0.277008 0.430725 0.487671
0.275757 0.425720 0.480865
0.275330 0.424011 0.477905
0.276093 0.411163 0.461975
0.238586 0.315887 0.352600
0.260437 0.348175 0.385498
0.248138 0.298706 0.328674
0.220245 0.226166 0.248871
0.225769 0.219147 0.234161
0.229065 0.214417 0.225037
0.224854 0.211700 0.226715
0.229065 0.214417 0.225037
0.228577 0.215363 0.225433
0.227905 0.222717 0.237762
0.240295 0.265076 0.285034
0.241425 0.274048 0.290222
0.244080 0.278748 0.294098
0.245148 0.281403 0.297363
0.246216 0.284027 0.300568
0.245514 0.288208 0.306824
0.248688 0.292938 0.311340
0.251312 0.295563 0.316498
0.250275 0.291382 0.314026
0.260315 0.355682 0.392212
0.477020 0.482025 0.591553
0.485321 0.490173 0.600098
0.491486 0.495728 0.602142
0.498566 0.501923 0.604065
0.506836 0.510101 0.610229
0.514465 0.518341 0.618225
0.523041 0.525818 0.624084
0.527588 0.531342 0.627563
0.532654 0.536987 0.632782
0.538025 0.541901 0.641083
0.542816 0.546692 0.644226
0.546478 0.550568 0.648712
0.548553 0.552277 0.652405
0.549225 0.553253 0.652710
0.549225 0.553253 0.652710
0.549896 0.553589 0.654419
0.549072 0.552948 0.655762
0.548431 0.552612 0.654114
0.547699 0.551605 0.653809
0.547699 0.551605 0.653809
0.548340 0.551941 0.655457
0.551208 0.554260 0.657715
0.551208 0.554260 0.657715
0.549744 0.553284 0.657410
0.550415 0.554260 0.657715
0.549591 0.553619 0.659058
0.550232 0.553955 0.660675
0.549316 0.553253 0.661987
0.548553 0.553253 0.661987
0.549042 0.553894 0.665131
0.547424 0.552856 0.664795
0.547424 0.553894 0.665131
0.483643 0.489746 0.595490
0.485443 0.491364 0.595123
0.491089 0.496490 0.598602
0.499329 0.502319 0.606049
0.506042 0.509705 0.608307
0.514465 0.518341 0.618225
0.522034 0.525818 0.624084
0.528534 0.532593 0.627960
0.534424 0.538147 0.633118
0.537537 0.541199 0.637512
0.541351 0.545258 0.642090
0.544464 0.547791 0.644562
0.545746 0.549530 0.648376
0.546997 0.551239 0.652130
0.549896 0.552948 0.655762
0.549072 0.552948 0.655762
0.551208 0.554260 0.657715
0.551208 0.554260 0.657715
0.550415 0.554260 0.657715
0.550415 0.554260 0.657715
0.550415 0.554260 0.657715
0.549744 0.553284 0.657410
0.549744 0.553284 0.657410
0.547607 0.550903 0.655151
0.544678 0.549164 0.651489
0.543884 0.548096 0.651154
0.544525 0.548431 0.652832
0.544373 0.548767 0.654480
0.545013 0.549103 0.656128
0.545013 0.549103 0.656128
0.545319 0.550079 0.661011
0.545959 0.551483 0.662872
0.524933 0.528412 0.624878
0.527588 0.531342 0.627563
0.529480 0.532593 0.627960
0.528534 0.532593 0.627960
0.532715 0.535767 0.632416
0.533386 0.537354 0.634644
0.533905 0.538086 0.638275
0.537201 0.540771 0.640747
0.537872 0.542267 0.642883
0.540924 0.545227 0.647064
0.541443 0.545929 0.650513
0.542908 0.547363 0.652496
0.543579 0.547699 0.654144
0.544220 0.548035 0.655823
0.544220 0.548035 0.655823
0.544678 0.548676 0.659058
0.542999 0.548676 0.659058
0.542999 0.548676 0.659058
0.542175 0.548676 0.659058
0.542786 0.547913 0.660339
0.541290 0.547577 0.658722
0.541077 0.547913 0.660339
0.539276 0.546783 0.660004
0.538361 0.546783 0.660004
0.538818 0.545166 0.663788
0.534912 0.544189 0.664886
0.532288 0.543549 0.664886
0.530640 0.542053 0.664124
0.536804 0.546783 0.667389
0.530945 0.543213 0.664825
0.532288 0.543549 0.664886
0.533630 0.543884 0.664886
0.524017 0.527130 0.624512
0.524017 0.527130 0.624512
0.523773 0.527527 0.626404
0.526672 0.530090 0.627167
0.528107 0.532104 0.631287
0.530731 0.533722 0.633514
0.534088 0.537720 0.636444
0.537201 0.540771 0.640747
0.538544 0.542633 0.644623
0.541779 0.545227 0.647064
0.541595 0.545593 0.648773
0.541443 0.545929 0.650513
0.542908 0.547363 0.652496
0.544220 0.548035 0.655823
0.544220 0.548035 0.655823
0.544220 0.548035 0.655823
0.542572 0.548035 0.655823
0.542572 0.548035 0.655823
0.542999 0.548676 0.659058
0.541534 0.547272 0.657135
0.541534 0.547272 0.657135
0.541290 0.547577 0.658722
0.541077 0.547913 0.660339
0.540436 0.546478 0.658386
0.539825 0.547272 0.657135
0.542175 0.548676 0.659058
0.544708 0.549774 0.659393
0.545685 0.550507 0.658112
0.548035 0.552582 0.658752
0.550415 0.554260 0.657715
0.550415 0.554260 0.657715
0.550415 0.554260 0.657715
0.536896 0.539673 0.635345
0.535980 0.539673 0.635345
0.537537 0.541199 0.637512
0.536621 0.541199 0.637512
0.539246 0.542328 0.637848
0.538177 0.542694 0.639648
0.541504 0.544891 0.640350
0.541504 0.544891 0.640350
0.541351 0.545258 0.642090
0.541351 0.545258 0.642090
0.542114 0.546326 0.642426
0.542114 0.546326 0.642426
0.542816 0.546692 0.644226
0.543518 0.547058 0.645966
0.544312 0.548126 0.646301
0.545013 0.548492 0.648071
0.544159 0.548492 0.648071
0.546417 0.549866 0.650085
0.546265 0.550232 0.651825
0.547821 0.551239 0.652130
0.547821 0.551239 0.652130
0.545593 0.549866 0.650085
0.547821 0.551239 0.652130
0.547821 0.551239 0.652130
0.547821 0.551239 0.652130
0.546265 0.550232 0.651825
0.547119 0.550232 0.651825
0.544159 0.548492 0.648071
0.544312 0.548126 0.646301
0.542664 0.547058 0.645966
0.541870 0.545959 0.645630
0.541016 0.545959 0.645630
0.533051 0.536224 0.629089
0.531250 0.535034 0.628693
0.532227 0.535034 0.628693
0.532227 0.535034 0.628693
0.532227 0.535034 0.628693
0.531250 0.535034 0.628693
0.531250 0.535034 0.628693
0.531250 0.535034 0.628693
0.531250 0.535034 0.628693
0.532104 0.536224 0.629089
0.532867 0.536621 0.630951
0.534637 0.537781 0.631317
0.533691 0.537781 0.631317
0.535461 0.538940 0.631683
0.536957 0.540436 0.633850
0.538330 0.542328 0.637848
0.539124 0.543427 0.638184
0.540802 0.544525 0.638519
0.540649 0.544891 0.640350
0.540649 0.544891 0.640350
0.541351 0.545258 0.642090
0.541351 0.545258 0.642090
0.541351 0.545258 0.642090
0.541351 0.545258 0.642090
0.541199 0.545624 0.643890
0.543518 0.547058 0.645966
0.544312 0.548126 0.646301
0.544373 0.548828 0.644928
0.545044 0.549164 0.646606
0.545044 0.549164 0.646606
0.544220 0.549164 0.646606
0.544220 0.549164 0.646606
0.511475 0.514008 0.609619
0.507202 0.511169 0.608734
0.505249 0.509277 0.606293
0.505280 0.507843 0.605865
0.504181 0.506378 0.605408
0.504181 0.506378 0.605408
0.504181 0.506378 0.605408
0.501160 0.504486 0.602966
0.501160 0.504486 0.602966
0.505280 0.507843 0.605865
0.509369 0.511169 0.608734
0.510345 0.512543 0.609161
0.512482 0.515381 0.610016
0.515320 0.518555 0.612823
0.518341 0.521240 0.613647
0.519318 0.522583 0.614075
0.519073 0.522980 0.616058
0.519073 0.522980 0.616058
