Console Band (OpenGL style) V3/Textures/cold.CUBE
#Created by: Adobe Photoshop Export Color Lookup Plugin
TITLE "cold"
#LUT size
LUT_3D_SIZE 5
#data domain
#LUT data points
DOMAIN_MIN 0.000000 0.000000 0.000000
DOMAIN_MAX 0.903226 0.903226 0.903226
0.000000 0.000000 0.000000
0.142456 0.089539 0.034790
0.279083 0.175262 0.064911
0.403198 0.252991 0.089264
0.492310 0.308716 0.104675
0.572479 0.574402 0.694672
0.574097 0.575531 0.693878
0.572601 0.574615 0.692444
0.572601 0.574615 0.692444
0.572601 0.574615 0.692444
0.486877 0.387970 0.237427
0.490417 0.396484 0.247009
0.486542 0.386475 0.239044
0.490967 0.399170 0.248077
0.488892 0.394623 0.244263
0.477020 0.482025 0.591553
0.527588 0.531342 0.627563
0.549225 0.553253 0.652710
0.551208 0.554260 0.657715
0.548553 0.553253 0.661987
0.470886 0.477020 0.587280
0.470581 0.475555 0.585052
0.455383 0.464783 0.579315
0.514526 0.516968 0.617828
0.527710 0.539001 0.648376
0.055328 0.074890 0.179352
0.131042 0.044739 0.110321
0.286224 0.133209 0.098053
0.422913 0.213654 0.086121
0.511993 0.270020 0.092346
0.572479 0.574402 0.694672
0.574554 0.575775 0.695068
0.572601 0.574615 0.692444
0.573090 0.574860 0.693665
0.573090 0.574860 0.693665
0.492340 0.405304 0.256958
0.494049 0.406494 0.255066
0.494476 0.403046 0.255707
0.492004 0.406586 0.253143
0.494720 0.406342 0.261444
0.481201 0.486145 0.595093
0.531097 0.534180 0.630219
0.549225 0.552612 0.654114
0.550293 0.554596 0.659363
0.548401 0.552551 0.663239
0.465790 0.471893 0.585358
0.457581 0.466949 0.581909
0.438568 0.456146 0.574524
0.511017 0.517365 0.619751
0.527039 0.537781 0.653442
0.103302 0.147003 0.350403
0.202087 0.083557 0.312134
0.259430 0.088562 0.214081
0.400177 0.170349 0.189545
0.498505 0.229095 0.170990
0.572479 0.574402 0.694672
0.573547 0.575104 0.694885
0.574097 0.575531 0.693878
0.573090 0.574860 0.693665
0.573090 0.574860 0.693665
0.494904 0.410004 0.263000
0.495697 0.413818 0.266663
0.495514 0.410156 0.265167
0.496307 0.414001 0.268890
0.495972 0.414978 0.269318
0.483246 0.488159 0.597595
0.529266 0.532959 0.629822
0.548431 0.552612 0.654114
0.551117 0.555237 0.658020
0.551575 0.555237 0.662598
0.459595 0.466980 0.579773
0.446503 0.458984 0.576263
0.438568 0.456146 0.574524
0.514648 0.520874 0.624359
0.523956 0.535858 0.653931
0.142029 0.212830 0.504822
0.240479 0.151337 0.472382
0.355652 0.089813 0.439911
0.378632 0.129333 0.306427
0.479828 0.189026 0.279022
0.572479 0.574402 0.694672
0.573547 0.575104 0.694885
0.573547 0.575104 0.694885
0.573090 0.574860 0.693665
0.573090 0.574860 0.693665
0.487213 0.401245 0.253723
0.494843 0.414307 0.269257
0.496582 0.415192 0.271545
0.493530 0.405670 0.261322
0.492371 0.404968 0.261169
0.479523 0.485718 0.595062
0.528534 0.532593 0.627960
0.548431 0.552612 0.654114
0.551941 0.555878 0.656647
0.548950 0.553284 0.657410
0.435852 0.453186 0.572235
0.412872 0.440582 0.567688
0.419556 0.443542 0.568604
0.519745 0.527710 0.633392
0.511963 0.531708 0.653015
0.166595 0.260254 0.615051
0.264893 0.200165 0.586914
0.383118 0.140137 0.558807
0.451996 0.129272 0.474030
0.465912 0.159149 0.371460
0.574036 0.575348 0.696106
0.573547 0.575104 0.694885
0.573547 0.575104 0.694885
0.573547 0.575104 0.694885
0.574097 0.575531 0.693878
0.477570 0.392334 0.262146
0.492859 0.409485 0.269623
0.497314 0.421234 0.278534
0.496216 0.418396 0.275177
0.496155 0.418671 0.270905
0.479523 0.485718 0.595062
0.529480 0.532593 0.627960
0.549225 0.552612 0.654114
0.549774 0.553925 0.656067
0.547455 0.551239 0.656799
0.429443 0.449524 0.568695
0.405273 0.435333 0.564941
0.424103 0.445740 0.569092
0.518341 0.526764 0.634796
0.495880 0.521973 0.645691
