Console Band (OpenGL style) V3/Textures/cold.CUBE
#Created by: Adobe Photoshop Export Color Lookup Plugin
TITLE "cold"
#LUT size
LUT_3D_SIZE 8
#data domain
#LUT data points
DOMAIN_MIN 0.000000 0.000000 0.000000
DOMAIN_MAX 0.903226 0.903226 0.903226
0.000000 0.000000 0.000000
0.082123 0.051636 0.020447
0.162354 0.102020 0.039368
0.240631 0.151154 0.056763
0.316681 0.198822 0.072601
0.387054 0.242889 0.086273
0.446991 0.280396 0.097076
0.492310 0.308716 0.104675
0.570557 0.572968 0.690765
0.570557 0.572968 0.690765
0.570557 0.572968 0.690765
0.571564 0.573639 0.690979
0.571075 0.573395 0.689728
0.572144 0.574097 0.689941
0.570068 0.572876 0.687134
0.568024 0.570923 0.684021
0.574036 0.575348 0.696106
0.574493 0.576019 0.696289
0.574554 0.575775 0.695068
0.573547 0.575104 0.694885
0.573547 0.575104 0.694885
0.573547 0.575104 0.694885
0.573547 0.575104 0.694885
0.574097 0.575531 0.693878
0.572601 0.574615 0.692444
0.572113 0.574371 0.691223
0.569000 0.572174 0.686890
0.339630 0.404572 0.450562
0.242340 0.291351 0.332611
0.271118 0.335571 0.374023
0.256195 0.347107 0.377625
0.259186 0.359100 0.394531
0.516937 0.532806 0.513702
0.496857 0.440613 0.359711
0.487244 0.460876 0.322266
0.497620 0.446014 0.330231
0.504181 0.456940 0.336517
0.509277 0.469666 0.355621
0.512756 0.474518 0.366577
0.513489 0.479095 0.375763
0.397064 0.433167 0.552612
0.271118 0.430817 0.496216
0.277008 0.430725 0.487671
0.238586 0.315887 0.352600
0.225769 0.219147 0.234161
0.228577 0.215363 0.225433
0.244080 0.278748 0.294098
0.248688 0.292938 0.311340
0.524017 0.527130 0.624512
0.528107 0.532104 0.631287
0.538544 0.542633 0.644623
0.542908 0.547363 0.652496
0.542572 0.548035 0.655823
0.541534 0.547272 0.657135
0.539825 0.547272 0.657135
0.548035 0.552582 0.658752
0.470886 0.477020 0.587280
0.468964 0.475342 0.583801
0.468750 0.474884 0.584656
0.453461 0.464111 0.578888
0.464020 0.470551 0.582397
0.501587 0.505280 0.606934
0.528351 0.533203 0.636780
0.527710 0.539001 0.648376
0.032532 0.043152 0.103516
0.075226 0.025696 0.063812
0.166992 0.077271 0.060211
0.255035 0.127625 0.056519
0.331299 0.175537 0.068207
0.400360 0.219666 0.080811
0.459137 0.257202 0.090729
0.503540 0.285553 0.097656
0.570557 0.572968 0.690765
0.570557 0.572968 0.690765
0.570557 0.572968 0.690765
0.571564 0.573639 0.690979
0.571564 0.573639 0.690979
0.571075 0.573395 0.689728
0.570587 0.573151 0.688446
0.569122 0.571655 0.684235
0.573547 0.575104 0.694885
0.573486 0.575348 0.696106
0.572998 0.575104 0.694885
0.573547 0.575104 0.694885
0.573547 0.575104 0.694885
0.573547 0.575104 0.694885
0.573547 0.575104 0.694885
0.574097 0.575531 0.693878
0.572113 0.574371 0.691223
0.570526 0.573395 0.689728
0.364410 0.449341 0.502045
0.259033 0.334503 0.375092
0.212402 0.234528 0.261963
0.259521 0.336548 0.372406
0.255615 0.352631 0.385132
0.261139 0.367004 0.405090
0.522369 0.540405 0.536652
0.495880 0.512024 0.418884
0.480896 0.419861 0.298187
0.494324 0.438782 0.318268
0.505890 0.453705 0.341553
0.511292 0.467651 0.363464
0.514465 0.481842 0.379272
0.514740 0.480835 0.378693
0.425507 0.450989 0.575195
0.423859 0.449768 0.559265
0.274078 0.426880 0.489502
0.269409 0.431915 0.491425
0.227112 0.261932 0.283051
0.224518 0.223145 0.238159
0.246155 0.279816 0.299316
0.251312 0.295563 0.328156
0.525208 0.528015 0.622986
0.529266 0.532959 0.629822
0.541077 0.544861 0.645294
0.542908 0.547363 0.652496
0.543396 0.548035 0.655823
0.541748 0.548035 0.655823
0.542999 0.548676 0.659058
0.547302 0.551575 0.658447
0.468750 0.474884 0.584656
0.468750 0.474884 0.584656
0.459869 0.468414 0.581909
0.442596 0.457581 0.575348
0.455658 0.466248 0.581451
0.499359 0.503815 0.606506
0.525482 0.531952 0.636383
0.528412 0.538116 0.652222
0.062622 0.085358 0.204346
0.117188 0.048096 0.179474
0.149567 0.051056 0.125549
0.239044 0.101898 0.117493
0.324432 0.151276 0.109314
0.402039 0.196930 0.101532
0.467010 0.235901 0.094604
0.514801 0.265198 0.090576
0.570557 0.572968 0.690765
0.570557 0.572968 0.690765
0.570557 0.572968 0.690765
0.571564 0.573639 0.690979
0.571564 0.573639 0.690979
0.571075 0.573395 0.689728
0.571655 0.573853 0.688660
0.570618 0.572876 0.687134
0.574036 0.575348 0.696106
0.573486 0.575348 0.696106
0.574005 0.575775 0.695068
0.574554 0.575775 0.695068
0.573547 0.575104 0.694885
0.573547 0.575104 0.694885
0.573547 0.575104 0.694885
0.574097 0.575531 0.693878
0.571075 0.573395 0.689728
0.364410 0.457092 0.514496
0.295074 0.415894 0.464172
0.254181 0.339020 0.376678
0.253113 0.342560 0.381073
0.224487 0.267181 0.300385
0.229736 0.264557 0.297943
0.255493 0.360077 0.399567
0.532135 0.540131 0.538818
0.485626 0.432098 0.321167
0.528870 0.540894 0.532288
0.494385 0.433929 0.316010
0.503418 0.449036 0.335205
0.508728 0.461060 0.349213
0.511078 0.467865 0.358978
0.512695 0.473907 0.373291
0.440826 0.459015 0.579620
0.456848 0.467865 0.577789
0.489899 0.501343 0.594330
0.273621 0.432983 0.495331
0.265198 0.430878 0.485626
0.248169 0.290863 0.317871
0.231537 0.231171 0.255219
0.233734 0.231445 0.252747
0.524200 0.528015 0.622986
0.531097 0.534180 0.630219
0.542725 0.545959 0.645630
0.543884 0.548096 0.651154
0.542755 0.547699 0.654144
0.544067 0.548370 0.657471
0.544861 0.549438 0.657776
0.549652 0.554260 0.657715
0.465790 0.471893 0.585358
0.459869 0.468414 0.581909
0.448822 0.461151 0.578796
0.435699 0.454590 0.577423
0.451111 0.462616 0.578888
0.499359 0.505280 0.606934
0.526917 0.533936 0.640350
0.527039 0.537781 0.653442
0.090332 0.126678 0.302368
0.144806 0.090118 0.279541
0.204712 0.053528 0.256653
0.223022 0.076141 0.185089
0.309814 0.125977 0.172638
0.388763 0.172119 0.160706
0.454895 0.211487 0.150146
0.504120 0.241180 0.142059
0.570557 0.572968 0.690765
0.570557 0.572968 0.690765
0.570557 0.572968 0.690765
0.571564 0.573639 0.690979
0.571564 0.573639 0.690979
0.571075 0.573395 0.689728
0.572144 0.574097 0.689941
0.570068 0.572876 0.687134
0.574036 0.575348 0.696106
0.573547 0.575104 0.694885
0.574005 0.575775 0.695068
0.574554 0.575775 0.695068
0.573547 0.575104 0.694885
0.573547 0.575104 0.694885
0.573547 0.575104 0.694885
0.574097 0.575531 0.693878
0.371887 0.455872 0.508850
0.289612 0.417816 0.468079
0.256592 0.380371 0.421997
0.251892 0.353577 0.394043
0.250397 0.347565 0.382629
0.225037 0.261414 0.294739
0.219269 0.246155 0.270325
0.253937 0.298187 0.331360
0.487915 0.443726 0.335388
0.490112 0.429321 0.325897
0.507690 0.514313 0.434143
0.492279 0.429596 0.307587
0.501587 0.446228 0.325073
0.507172 0.457245 0.338440
0.509399 0.462677 0.349884
0.510162 0.466553 0.353943
0.447449 0.463348 0.582703
0.481201 0.486145 0.595093
0.514008 0.518951 0.614807
0.532806 0.539703 0.630127
0.279419 0.440460 0.501129
0.280823 0.430145 0.486755
0.230286 0.258759 0.286438
0.231750 0.249268 0.275360
0.523773 0.527527 0.626404
0.531769 0.535767 0.632416
0.541077 0.544861 0.645294
0.543884 0.548096 0.651154
0.545013 0.549103 0.656128
0.543396 0.548035 0.655823
0.548187 0.552277 0.657104
0.550476 0.554901 0.656372
0.459503 0.467621 0.582275
0.455444 0.464111 0.576782
0.442993 0.458344 0.574982
0.429260 0.450958 0.573975
0.451111 0.462616 0.578888
0.505096 0.510864 0.614136
0.528564 0.535522 0.642426
0.525360 0.536224 0.652710
0.115570 0.166901 0.397308
0.169922 0.131012 0.376434
0.229675 0.095093 0.355560
0.280731 0.075684 0.318481
0.295288 0.100830 0.242279
0.375549 0.147400 0.226257
0.442810 0.187103 0.212219
0.492920 0.217102 0.201385
0.571564 0.573639 0.690979
0.570557 0.572968 0.690765
0.570557 0.572968 0.690765
0.571564 0.573639 0.690979
0.571564 0.573639 0.690979
0.571564 0.573639 0.690979
0.572144 0.574097 0.689941
0.571136 0.573578 0.687347
0.573486 0.575348 0.696106
0.574005 0.575775 0.695068
0.574005 0.575775 0.695068
0.574554 0.575775 0.695068
0.573547 0.575104 0.694885
0.573547 0.575104 0.694885
0.573547 0.575104 0.694885
0.574097 0.575531 0.693878
0.292053 0.411774 0.461975
0.276978 0.390778 0.435364
0.259552 0.368439 0.406250
0.252350 0.307617 0.343445
0.226624 0.252441 0.271515
0.237091 0.248749 0.272766
0.242371 0.283508 0.300385
0.248688 0.292938 0.313263
0.484436 0.427612 0.321564
0.487305 0.420593 0.319977
0.482117 0.410889 0.293976
0.494476 0.424988 0.302856
0.501587 0.441742 0.318451
0.505676 0.449493 0.330444
0.508057 0.454132 0.336792
0.508698 0.456573 0.342468
0.455994 0.467682 0.583649
0.489746 0.495728 0.602966
0.526672 0.530090 0.627167
0.541443 0.545990 0.640686
0.541229 0.547424 0.642761
0.281219 0.431763 0.491516
0.268524 0.436249 0.501923
0.263855 0.322174 0.351013
0.526672 0.530090 0.627167
0.534088 0.537720 0.636444
0.542725 0.545959 0.645630
0.544067 0.547760 0.649445
0.545990 0.549835 0.654816
0.546631 0.550171 0.656464
0.549072 0.552948 0.655762
0.549896 0.553589 0.654419
0.457642 0.466248 0.579315
0.448822 0.461151 0.578796
0.435760 0.453888 0.574860
0.431244 0.452362 0.576935
0.454132 0.466339 0.580719
0.509949 0.515961 0.619324
0.528564 0.536743 0.642822
0.519348 0.533569 0.651886
0.137238 0.204254 0.484802
0.191498 0.168976 0.465820
0.251251 0.133636 0.446838
0.316345 0.098358 0.427856
0.350433 0.100494 0.368744
0.362976 0.123962 0.294556
0.431335 0.164032 0.277130
0.482300 0.194336 0.263611
0.572113 0.574371 0.691223
0.570557 0.572968 0.690765
0.570557 0.572968 0.690765
0.571564 0.573639 0.690979
0.571564 0.573639 0.690979
0.570526 0.573395 0.689728
0.572144 0.574097 0.689941
0.571655 0.573853 0.688660
0.574493 0.576019 0.696289
0.574493 0.576019 0.696289
0.574005 0.575775 0.695068
0.574554 0.575775 0.695068
0.573547 0.575104 0.694885
0.573547 0.575104 0.694885
0.573547 0.575104 0.694885
0.574097 0.575531 0.693878
0.261932 0.354187 0.394897
0.250061 0.330353 0.365967
0.241821 0.289276 0.319672
0.216125 0.210052 0.226654
0.232727 0.225616 0.238525
0.239868 0.274048 0.290222
0.250275 0.283478 0.312897
0.340454 0.423828 0.422211
0.482941 0.416718 0.305450
0.498413 0.485382 0.372131
0.482910 0.409332 0.288727
0.496002 0.425049 0.298218
0.501038 0.437103 0.309631
0.504486 0.446899 0.322632
0.504486 0.446899 0.322632
0.506439 0.451111 0.331085
0.462372 0.471985 0.586731
0.494659 0.500763 0.605560
0.529266 0.532959 0.629822
0.545044 0.549164 0.646606
0.548553 0.552917 0.651031
0.537109 0.543030 0.641418
0.273712 0.449188 0.522552
0.270477 0.444092 0.512268
0.526642 0.531342 0.627563
0.537598 0.540039 0.637146
0.541870 0.545959 0.645630
0.544159 0.548492 0.648071
0.544678 0.549164 0.651489
0.546631 0.550171 0.656464
0.548431 0.552612 0.654114
0.546997 0.551239 0.652130
0.439484 0.453796 0.573486
0.424866 0.448029 0.570831
0.412872 0.440582 0.567688
0.422638 0.448761 0.575562
0.458344 0.468475 0.581177
0.511475 0.519501 0.623932
0.527008 0.536224 0.645935
0.511658 0.530487 0.651031
0.154449 0.236115 0.559113
0.208679 0.201355 0.541718
0.268280 0.166626 0.524384
0.333344 0.131897 0.507111
0.399902 0.100708 0.485687
0.411346 0.123779 0.404480
0.421356 0.143921 0.338501
0.473053 0.174469 0.322784
0.572113 0.574371 0.691223
0.571564 0.573639 0.690979
0.571564 0.573639 0.690979
0.571564 0.573639 0.690979
0.571014 0.573639 0.690979
0.572113 0.574371 0.691223
0.571594 0.574097 0.689941
0.571655 0.573853 0.688660
0.574005 0.575775 0.695068
0.574493 0.576019 0.696289
0.574005 0.575775 0.695068
0.574005 0.575775 0.695068
0.574554 0.575775 0.695068
0.574554 0.575775 0.695068
0.573547 0.575104 0.694885
0.574097 0.575531 0.693878
0.243896 0.297638 0.334412
0.251862 0.289795 0.324432
0.240753 0.285065 0.311279
0.212372 0.212463 0.230103
0.229584 0.227203 0.241791
0.237701 0.264557 0.282471
0.225525 0.245636 0.266968
0.249176 0.302917 0.321442
0.483734 0.413177 0.308167
0.503601 0.502441 0.401184
0.483826 0.403412 0.277069
0.497192 0.425751 0.298340
0.502106 0.439972 0.312988
0.504822 0.443634 0.318787
0.505096 0.440338 0.314941
0.503143 0.440582 0.313110
0.468719 0.475586 0.587250
0.499359 0.503815 0.606506
0.532715 0.535767 0.632416
0.545746 0.549530 0.648376
0.548462 0.553253 0.652710
0.544006 0.548828 0.649750
0.540192 0.545959 0.645630
0.322144 0.461212 0.534302
0.531097 0.534180 0.630219
0.537354 0.541565 0.639313
0.542816 0.546692 0.644226
0.544159 0.548492 0.648071
0.545502 0.549164 0.651489
0.546936 0.550568 0.653503
0.547760 0.552277 0.652405
0.545593 0.549866 0.650085
0.437469 0.453125 0.573059
0.421631 0.444244 0.569000
0.407410 0.436066 0.565399
0.397980 0.431580 0.564453
0.447357 0.459808 0.572784
0.510376 0.519501 0.623932
0.523346 0.533386 0.647339
0.502930 0.525604 0.648926
0.166595 0.260254 0.615051
0.220673 0.225952 0.598999
0.280273 0.191589 0.582886
0.347717 0.157288 0.566833
0.417572 0.123077 0.550812
0.449524 0.123962 0.493408
0.458771 0.143829 0.422760
0.465912 0.159149 0.371460
0.572601 0.574615 0.692444
0.571564 0.573639 0.690979
0.571564 0.573639 0.690979
0.571564 0.573639 0.690979
0.571014 0.573639 0.690979
0.572113 0.574371 0.691223
0.571594 0.574097 0.689941
0.571594 0.574097 0.689941
0.574493 0.576019 0.696289
0.574493 0.576019 0.696289
0.574005 0.575775 0.695068
0.574005 0.575775 0.695068
0.574554 0.575775 0.695068
0.574554 0.575775 0.695068
0.574554 0.575775 0.695068
0.574097 0.575531 0.693878
0.267334 0.391876 0.429688
0.241821 0.289276 0.319672
0.245514 0.296112 0.327423
0.236053 0.281921 0.306122
0.236572 0.276123 0.296539
0.235168 0.227112 0.238922
0.225861 0.215942 0.228180
0.255493 0.304474 0.329315
0.496033 0.486969 0.366119
0.474670 0.393494 0.271851
0.485260 0.406830 0.276154
0.495728 0.419769 0.284760
0.501831 0.434326 0.303741
0.503418 0.441803 0.315887
0.501831 0.436523 0.306946
0.500702 0.435913 0.306885
0.472687 0.478302 0.590118
0.503540 0.508636 0.609802
0.534546 0.536987 0.632782
0.546478 0.550568 0.648712
0.549774 0.553925 0.656067
0.547699 0.551605 0.653809
0.547546 0.551941 0.655457
0.545044 0.550171 0.656464
0.532501 0.536163 0.634247
0.539246 0.542328 0.637848
0.542114 0.546326 0.642426
0.544312 0.548126 0.646301
0.546417 0.549866 0.650085
0.544678 0.549164 0.651489
0.546997 0.551239 0.652130
0.544159 0.548492 0.648071
0.429443 0.449524 0.568695
0.419647 0.442810 0.565979
0.400208 0.431549 0.562286
0.403107 0.434570 0.564514
0.458344 0.468475 0.581177
0.514038 0.522980 0.628510
0.519043 0.532318 0.649872
0.495880 0.521973 0.645691
