Console Band (OpenGL style) V3/Textures/hot.CUBE
#Created by: Adobe Photoshop Export Color Lookup Plugin
TITLE "Untitled-1"
#LUT size
LUT_3D_SIZE 8
#data domain
#LUT data points
DOMAIN_MIN 0.000000 0.000000 0.000000
DOMAIN_MAX 0.903226 0.903226 0.903226
0.000000 0.000000 0.000000
0.478851 0.000000 0.000000
0.719147 0.000000 0.000000
0.928040 0.000000 0.000000
1.000000 0.000000 0.000000
1.000000 0.000000 0.000000
1.000000 0.000000 0.000000
1.000000 0.000000 0.000000
1.000000 1.000000 0.850128
1.000000 1.000000 0.850128
1.000000 1.000000 0.850128
1.000000 1.000000 0.850128
1.000000 1.000000 0.841034
1.000000 1.000000 0.841034
1.000000 1.000000 0.822144
1.000000 1.000000 0.803314
1.000000 1.000000 0.885437
1.000000 1.000000 0.885193
1.000000 1.000000 0.876984
1.000000 1.000000 0.876984
1.000000 1.000000 0.876984
1.000000 1.000000 0.876984
1.000000 1.000000 0.876984
1.000000 1.000000 0.868195
1.000000 1.000000 0.859436
1.000000 1.000000 0.850128
1.000000 1.000000 0.822144
1.000000 0.714935 0.000000
0.839294 0.340698 0.000000
0.894409 0.501862 0.000000
0.833893 0.567322 0.000000
0.832825 0.614349 0.000000
1.000000 0.999268 0.000000
1.000000 0.459412 0.000000
1.000000 0.605164 0.000000
1.000000 0.475922 0.000000
1.000000 0.525360 0.000000
1.000000 0.597015 0.000000
1.000000 0.619965 0.000000
1.000000 0.649994 0.000000
1.000000 0.772980 0.210693
0.805481 0.877960 0.000000
0.826477 0.872528 0.000000
0.803162 0.452423 0.000000
0.865906 0.051086 0.000000
0.872772 0.030457 0.000000
0.911469 0.288635 0.000000
0.897858 0.340302 0.000000
1.000000 0.981537 0.458344
1.000000 0.996490 0.495789
1.000000 1.000000 0.569611
1.000000 1.000000 0.617981
1.000000 1.000000 0.642242
1.000000 1.000000 0.654327
1.000000 1.000000 0.654572
1.000000 1.000000 0.652863
1.000000 0.860687 0.313263
1.000000 0.855133 0.288177
1.000000 0.855133 0.300781
1.000000 0.826721 0.290344
1.000000 0.843933 0.301605
1.000000 0.935486 0.384369
1.000000 1.000000 0.533478
1.000000 1.000000 0.608551
0.000000 0.000000 0.000000
0.478851 0.000000 0.000000
0.719147 0.000000 0.000000
0.928040 0.000000 0.000000
1.000000 0.000000 0.000000
1.000000 0.000000 0.000000
1.000000 0.000000 0.000000
1.000000 0.000000 0.000000
1.000000 1.000000 0.850128
1.000000 1.000000 0.850128
1.000000 1.000000 0.850128
1.000000 1.000000 0.850128
1.000000 1.000000 0.850128
1.000000 1.000000 0.841034
1.000000 1.000000 0.832062
1.000000 1.000000 0.803314
1.000000 1.000000 0.876984
1.000000 1.000000 0.885193
1.000000 1.000000 0.876709
1.000000 1.000000 0.876984
1.000000 1.000000 0.876984
1.000000 1.000000 0.876984
1.000000 1.000000 0.876984
1.000000 1.000000 0.868195
1.000000 1.000000 0.850128
1.000000 1.000000 0.841034
1.000000 0.858826 0.000000
0.855164 0.510437 0.000000
0.818634 0.134766 0.000000
0.854950 0.518555 0.000000
0.826660 0.591248 0.000000
0.832031 0.644653 0.000000
1.000000 1.000000 0.004150
1.000000 0.924744 0.000000
1.000000 0.348419 0.000000
1.000000 0.433838 0.000000
1.000000 0.500732 0.000000
1.000000 0.581451 0.000000
1.000000 0.664642 0.000000
1.000000 0.657532 0.000000
1.000000 0.797485 0.293701
1.000000 0.815918 0.207306
0.819763 0.861450 0.000000
0.798279 0.883453 0.000000
0.848785 0.229950 0.000000
0.865540 0.070984 0.000000
0.911438 0.288574 0.000000
0.865295 0.349152 0.000000
1.000000 0.981537 0.445190
1.000000 0.996368 0.483093
1.000000 1.000000 0.569244
1.000000 1.000000 0.617981
1.000000 1.000000 0.642029
1.000000 1.000000 0.642242
1.000000 1.000000 0.665985
1.000000 1.000000 0.653107
1.000000 0.855133 0.300781
1.000000 0.855133 0.300781
1.000000 0.838440 0.302094
1.000000 0.809174 0.279358
1.000000 0.832703 0.302765
1.000000 0.930878 0.384949
1.000000 1.000000 0.534149
1.000000 1.000000 0.621033
0.000000 0.000000 0.000000
0.478851 0.000000 0.000000
0.719147 0.000000 0.000000
0.928040 0.000000 0.000000
1.000000 0.000000 0.000000
1.000000 0.000000 0.000000
1.000000 0.000000 0.000000
1.000000 0.000000 0.000000
1.000000 1.000000 0.850128
1.000000 1.000000 0.850128
1.000000 1.000000 0.850128
1.000000 1.000000 0.850128
1.000000 1.000000 0.850128
1.000000 1.000000 0.841034
1.000000 1.000000 0.832062
1.000000 1.000000 0.822144
1.000000 1.000000 0.885437
1.000000 1.000000 0.885193
1.000000 1.000000 0.876709
1.000000 1.000000 0.876984
1.000000 1.000000 0.876984
1.000000 1.000000 0.876984
1.000000 1.000000 0.876984
1.000000 1.000000 0.868195
1.000000 1.000000 0.841034
1.000000 0.885803 0.000000
0.901276 0.802094 0.000000
0.834595 0.535248 0.000000
0.827576 0.551331 0.000000
0.801788 0.255463 0.000000
0.822235 0.238556 0.000000
0.819031 0.622131 0.000000
1.000000 0.991882 0.007172
1.000000 0.425720 0.000000
1.000000 1.000000 0.000793
1.000000 0.399811 0.000000
1.000000 0.475830 0.000000
1.000000 0.541443 0.000000
1.000000 0.581451 0.000000
1.000000 0.619995 0.000000
1.000000 0.815277 0.304504
1.000000 0.844208 0.276947
1.000000 0.931183 0.307922
0.812256 0.883362 0.000000
0.784027 0.883575 0.000000
0.872223 0.331909 0.000000
0.877808 0.093781 0.000000
0.884094 0.087738 0.000000
1.000000 0.985352 0.444977
1.000000 0.996368 0.482880
1.000000 1.000000 0.569244
1.000000 1.000000 0.605896
1.000000 1.000000 0.630249
1.000000 1.000000 0.653839
1.000000 1.000000 0.653595
1.000000 1.000000 0.640961
1.000000 0.843872 0.314301
1.000000 0.838440 0.302094
1.000000 0.815002 0.291321
1.000000 0.797028 0.292877
1.000000 0.820984 0.290833
1.000000 0.935577 0.384552
1.000000 1.000000 0.559326
1.000000 1.000000 0.621246
0.000000 0.000000 0.000000
0.478851 0.000000 0.000000
0.719147 0.000000 0.000000
0.928040 0.000000 0.000000
1.000000 0.000000 0.000000
1.000000 0.000000 0.000000
1.000000 0.000000 0.000000
1.000000 0.000000 0.000000
1.000000 1.000000 0.850128
1.000000 1.000000 0.850128
1.000000 1.000000 0.850128
1.000000 1.000000 0.850128
1.000000 1.000000 0.850128
1.000000 1.000000 0.841034
1.000000 1.000000 0.841034
1.000000 1.000000 0.822144
1.000000 1.000000 0.885437
1.000000 1.000000 0.876984
1.000000 1.000000 0.876709
1.000000 1.000000 0.876984
1.000000 1.000000 0.876984
1.000000 1.000000 0.876984
1.000000 1.000000 0.876984
1.000000 1.000000 0.868195
1.000000 0.875122 0.000000
0.881622 0.814362 0.000000
0.803253 0.703247 0.000000
0.812866 0.599030 0.000000
0.813385 0.575500 0.000000
0.809113 0.230347 0.000000
0.837250 0.173065 0.000000
0.871552 0.357788 0.000000
1.000000 0.501160 0.000000
1.000000 0.391144 0.000000
1.000000 0.895264 0.000000
1.000000 0.374084 0.000000
1.000000 0.459076 0.000000
1.000000 0.517120 0.000000
1.000000 0.549408 0.000000
1.000000 0.573425 0.000000
1.000000 0.826904 0.316498
1.000000 0.881897 0.337128
1.000000 0.969788 0.407440
1.000000 1.000000 0.467865
0.825623 0.903992 0.000000
0.840332 0.866913 0.000000
0.855591 0.213318 0.000000
0.882263 0.180481 0.000000
1.000000 0.985413 0.470978
1.000000 1.000000 0.495148
1.000000 1.000000 0.569244
1.000000 1.000000 0.605896
1.000000 1.000000 0.642029
1.000000 1.000000 0.642029
1.000000 1.000000 0.641449
1.000000 1.000000 0.628815
1.000000 0.832611 0.302429
1.000000 0.826660 0.277832
1.000000 0.815277 0.279114
1.000000 0.790955 0.281097
1.000000 0.820984 0.290833
1.000000 0.948822 0.422180
1.000000 1.000000 0.571320
1.000000 1.000000 0.621735
0.000000 0.000000 0.000000
0.478851 0.000000 0.000000
0.719147 0.000000 0.000000
0.928040 0.000000 0.000000
1.000000 0.000000 0.000000
1.000000 0.000000 0.000000
1.000000 0.000000 0.000000
1.000000 0.000000 0.000000
1.000000 1.000000 0.850128
1.000000 1.000000 0.850128
1.000000 1.000000 0.850128
1.000000 1.000000 0.850128
1.000000 1.000000 0.850128
1.000000 1.000000 0.850128
1.000000 1.000000 0.841034
1.000000 1.000000 0.822144
1.000000 1.000000 0.885193
1.000000 1.000000 0.876709
1.000000 1.000000 0.876709
1.000000 1.000000 0.876984
1.000000 1.000000 0.876984
1.000000 1.000000 0.876984
1.000000 1.000000 0.876984
1.000000 1.000000 0.868195
0.895233 0.789642 0.000000
0.863800 0.723969 0.000000
0.825104 0.652283 0.000000
0.857635 0.400818 0.000000
0.869110 0.196838 0.000000
0.907562 0.180267 0.000000
0.892151 0.305939 0.000000
0.891357 0.340363 0.000000
1.000000 0.400055 0.000000
1.000000 0.339691 0.000000
1.000000 0.279572 0.000000
1.000000 0.330933 0.000000
1.000000 0.425140 0.000000
1.000000 0.467316 0.000000
1.000000 0.492279 0.000000
1.000000 0.508942 0.000000
1.000000 0.838623 0.315338
1.000000 0.907501 0.373932
1.000000 0.989166 0.470551
1.000000 1.000000 0.531433
1.000000 1.000000 0.543396
0.840210 0.872467 0.000000
0.790802 0.899200 0.000000
0.882538 0.451691 0.000000
1.000000 0.989166 0.470551
1.000000 1.000000 0.520203
1.000000 1.000000 0.569244
1.000000 1.000000 0.593658
1.000000 1.000000 0.630005
1.000000 1.000000 0.642029
1.000000 1.000000 0.629303
1.000000 1.000000 0.617035
1.000000 0.832672 0.289948
1.000000 0.815002 0.291321
1.000000 0.797028 0.280457
1.000000 0.790863 0.293549
1.000000 0.838684 0.302612
1.000000 0.961670 0.447327
1.000000 1.000000 0.571106
1.000000 1.000000 0.622345
0.000000 0.000000 0.102203
0.478851 0.000000 0.101990
0.719147 0.000000 0.101105
0.928040 0.000000 0.098846
1.000000 0.000000 0.095886
1.000000 0.000000 0.093018
1.000000 0.000000 0.090759
1.000000 0.000000 0.089264
1.000000 1.000000 0.850128
1.000000 1.000000 0.850128
1.000000 1.000000 0.850128
1.000000 1.000000 0.850128
1.000000 1.000000 0.850128
1.000000 1.000000 0.841034
1.000000 1.000000 0.841034
1.000000 1.000000 0.832062
1.000000 1.000000 0.885193
1.000000 1.000000 0.885193
1.000000 1.000000 0.876709
1.000000 1.000000 0.876984
1.000000 1.000000 0.876984
1.000000 1.000000 0.876984
1.000000 1.000000 0.876984
1.000000 1.000000 0.868195
0.846710 0.591095 0.000000
0.828766 0.502289 0.000000
0.839539 0.332245 0.000000
0.840790 0.038300 0.000000
0.884613 0.060394 0.000000
0.899384 0.271606 0.000000
0.898682 0.297150 0.000000
1.000000 0.787170 0.000000
1.000000 0.322601 0.000000
1.000000 0.735138 0.000000
1.000000 0.262604 0.000000
1.000000 0.322144 0.000000
1.000000 0.390900 0.000000
1.000000 0.450592 0.000000
1.000000 0.450592 0.000000
1.000000 0.475677 0.000000
1.000000 0.849823 0.327087
1.000000 0.921661 0.385803
1.000000 0.996368 0.483093
1.000000 1.000000 0.568512
1.000000 1.000000 0.592529
1.000000 1.000000 0.544281
0.796783 0.938141 0.000000
0.790039 0.924072 0.000000
1.000000 0.996490 0.469940
1.000000 1.000000 0.520020
1.000000 1.000000 0.569061
1.000000 1.000000 0.580902
1.000000 1.000000 0.605438
1.000000 1.000000 0.642029
1.000000 1.000000 0.617035
1.000000 1.000000 0.605194
1.000000 0.790741 0.267975
1.000000 0.784821 0.269318
1.000000 0.759369 0.258453
1.000000 0.784821 0.294525
1.000000 0.844116 0.302094
1.000000 0.970093 0.472839
1.000000 1.000000 0.596619
1.000000 1.000000 0.623108
0.000000 0.000000 0.521423
0.478851 0.000000 0.520752
0.719147 0.000000 0.519165
0.928040 0.000000 0.514832
1.000000 0.000000 0.508850
1.000000 0.000000 0.502960
1.000000 0.000000 0.498627
1.000000 0.000000 0.495575
1.000000 1.000000 0.850128
1.000000 1.000000 0.850128
1.000000 1.000000 0.850128
1.000000 1.000000 0.850128
1.000000 1.000000 0.850128
1.000000 1.000000 0.850128
1.000000 1.000000 0.840759
1.000000 1.000000 0.832062
1.000000 1.000000 0.876709
1.000000 1.000000 0.885193
1.000000 1.000000 0.876709
1.000000 1.000000 0.876709
1.000000 1.000000 0.876984
1.000000 1.000000 0.876984
1.000000 1.000000 0.876984
1.000000 1.000000 0.868195
0.838684 0.366638 0.000000
0.872375 0.323334 0.000000
0.846527 0.314911 0.000000
0.834106 0.056061 0.000000
0.878082 0.076294 0.000000
0.900085 0.237885 0.000000
0.869720 0.172699 0.000000
0.871124 0.383545 0.000000
1.000000 0.296783 0.000000
1.000000 0.823822 0.000000
1.000000 0.212280 0.000000
1.000000 0.322083 0.000000
1.000000 0.408081 0.000000
1.000000 0.425079 0.000000
1.000000 0.399445 0.000000
1.000000 0.408081 0.000000
1.000000 0.860779 0.326141
1.000000 0.930878 0.384949
1.000000 1.000000 0.495361
1.000000 1.000000 0.580902
1.000000 1.000000 0.604492
1.000000 1.000000 0.593109
1.000000 1.000000 0.568695
0.946228 0.936859 0.000000
1.000000 0.996368 0.482880
1.000000 1.000000 0.532257
1.000000 1.000000 0.556427
1.000000 1.000000 0.580902
1.000000 1.000000 0.605682
1.000000 1.000000 0.617615
1.000000 1.000000 0.604950
1.000000 1.000000 0.593109
1.000000 0.790771 0.268127
1.000000 0.765533 0.257538
1.000000 0.739410 0.247498
1.000000 0.725861 0.248505
1.000000 0.821167 0.266205
1.000000 0.970093 0.472992
1.000000 1.000000 0.585144
1.000000 0.997437 0.636475
0.000000 0.000000 0.929535
0.478851 0.000000 0.928955
0.719147 0.000000 0.926361
0.928040 0.000000 0.921051
1.000000 0.000000 0.913483
1.000000 0.000000 0.906952
1.000000 0.000000 0.901276
1.000000 0.000000 0.897461
1.000000 1.000000 0.859436
1.000000 1.000000 0.850128
1.000000 1.000000 0.850128
1.000000 1.000000 0.850128
1.000000 1.000000 0.850128
1.000000 1.000000 0.850128
1.000000 1.000000 0.840759
1.000000 1.000000 0.840759
1.000000 1.000000 0.885193
1.000000 1.000000 0.885193
1.000000 1.000000 0.876709
1.000000 1.000000 0.876709
1.000000 1.000000 0.876984
1.000000 1.000000 0.876984
1.000000 1.000000 0.876984
1.000000 1.000000 0.868195
0.829803 0.737793 0.000000
0.839539 0.332245 0.000000
0.845520 0.357910 0.000000
0.833588 0.306580 0.000000
0.866974 0.280487 0.000000
0.890900 0.060333 0.000000
0.866211 0.038116 0.000000
0.884003 0.383392 0.000000
1.000000 0.748779 0.000000
1.000000 0.179810 0.000000
1.000000 0.228760 0.000000
1.000000 0.279327 0.000000
1.000000 0.365143 0.000000
1.000000 0.416626 0.000000
1.000000 0.382477 0.000000
1.000000 0.382507 0.000000
1.000000 0.866180 0.338287
1.000000 0.944519 0.396667
1.000000 0.999939 0.495148
1.000000 1.000000 0.580658
1.000000 1.000000 0.629059
1.000000 1.000000 0.617432
1.000000 1.000000 0.629303
1.000000 1.000000 0.641632
1.000000 1.000000 0.507751
1.000000 1.000000 0.519684
1.000000 1.000000 0.544067
1.000000 1.000000 0.568695
1.000000 1.000000 0.593292
1.000000 1.000000 0.605438
1.000000 1.000000 0.605194
1.000000 1.000000 0.580902
1.000000 0.791016 0.256256
1.000000 0.765625 0.245575
1.000000 0.725769 0.236053
1.000000 0.739502 0.247742
1.000000 0.844116 0.302094
1.000000 0.977844 0.498016
1.000000 1.000000 0.610199
1.000000 0.994110 0.624664
