Console Band (OpenGL style) V3/Textures/hot.CUBE
#Created by: Adobe Photoshop Export Color Lookup Plugin
TITLE "Untitled-1"
#LUT size
LUT_3D_SIZE 5
#data domain
#LUT data points
DOMAIN_MIN 0.000000 0.000000 0.000000
DOMAIN_MAX 0.903226 0.903226 0.903226
0.000000 0.000000 0.000000
0.663269 0.000000 0.000000
1.000000 0.000000 0.000000
1.000000 0.000000 0.000000
1.000000 0.000000 0.000000
1.000000 1.000000 0.876984
1.000000 1.000000 0.868195
1.000000 1.000000 0.859436
1.000000 1.000000 0.859436
1.000000 1.000000 0.859436
1.000000 0.085754 0.000000
1.000000 0.125427 0.000000
1.000000 0.079712 0.000000
1.000000 0.140137 0.000000
1.000000 0.118286 0.000000
1.000000 0.871429 0.324951
1.000000 0.992981 0.470123
1.000000 1.000000 0.604736
1.000000 1.000000 0.641449
1.000000 1.000000 0.676392
1.000000 0.860687 0.313263
1.000000 0.855103 0.300598
1.000000 0.826660 0.290222
1.000000 0.957458 0.434662
1.000000 1.000000 0.608551
0.000000 0.000000 0.000000
0.663269 0.000000 0.000000
1.000000 0.000000 0.000000
1.000000 0.000000 0.000000
1.000000 0.000000 0.000000
1.000000 1.000000 0.876984
1.000000 1.000000 0.876984
1.000000 1.000000 0.859436
1.000000 1.000000 0.868195
1.000000 1.000000 0.868195
1.000000 0.179443 0.000000
1.000000 0.179382 0.000000
1.000000 0.155457 0.000000
1.000000 0.187500 0.000000
1.000000 0.179352 0.000000
1.000000 0.881897 0.337128
1.000000 0.996368 0.482880
1.000000 1.000000 0.617218
1.000000 1.000000 0.652618
1.000000 1.000000 0.688080
1.000000 0.843872 0.314301
1.000000 0.832672 0.302612
1.000000 0.809235 0.279633
1.000000 0.965759 0.446991
1.000000 1.000000 0.621246
0.000000 0.000000 0.000000
0.663269 0.000000 0.000000
1.000000 0.000000 0.000000
1.000000 0.000000 0.000000
1.000000 0.000000 0.000000
1.000000 1.000000 0.876984
1.000000 1.000000 0.876984
1.000000 1.000000 0.868195
1.000000 1.000000 0.868195
1.000000 1.000000 0.868195
1.000000 0.203613 0.000000
1.000000 0.228546 0.000000
1.000000 0.203613 0.000000
1.000000 0.228516 0.000000
1.000000 0.236938 0.000000
1.000000 0.887207 0.349609
1.000000 0.996368 0.483093
1.000000 1.000000 0.617035
1.000000 1.000000 0.640961
1.000000 1.000000 0.676178
1.000000 0.832611 0.289825
1.000000 0.809082 0.279114
1.000000 0.809235 0.279633
1.000000 0.973877 0.472351
1.000000 1.000000 0.633911
0.000000 0.000000 0.191833
0.663269 0.000000 0.190704
1.000000 0.000000 0.185455
1.000000 0.000000 0.178711
1.000000 0.000000 0.174652
1.000000 1.000000 0.876984
1.000000 1.000000 0.876984
1.000000 1.000000 0.876984
1.000000 1.000000 0.868195
1.000000 1.000000 0.868195
1.000000 0.171417 0.000000
1.000000 0.237000 0.000000
1.000000 0.236938 0.000000
1.000000 0.179382 0.000000
1.000000 0.179443 0.000000
1.000000 0.881989 0.337128
1.000000 0.996368 0.469940
1.000000 1.000000 0.617035
1.000000 1.000000 0.628632
1.000000 1.000000 0.641205
1.000000 0.797028 0.267975
1.000000 0.759369 0.258453
1.000000 0.765625 0.257690
1.000000 0.989380 0.522736
1.000000 1.000000 0.635132
0.000000 0.000000 0.929535
0.663269 0.000000 0.927216
1.000000 0.000000 0.917725
1.000000 0.000000 0.905273
1.000000 0.000000 0.897461
1.000000 1.000000 0.885437
1.000000 1.000000 0.876984
1.000000 1.000000 0.876984
1.000000 1.000000 0.876984
1.000000 1.000000 0.868195
1.000000 0.155945 0.000000
1.000000 0.212006 0.000000
1.000000 0.279327 0.000000
1.000000 0.262238 0.000000
1.000000 0.262268 0.000000
1.000000 0.881989 0.337128
1.000000 0.992981 0.470123
1.000000 1.000000 0.617218
1.000000 1.000000 0.629059
1.000000 1.000000 0.641846
1.000000 0.791016 0.256256
1.000000 0.739441 0.247620
1.000000 0.771881 0.257141
1.000000 0.985565 0.535919
1.000000 0.994110 0.624664
