Console Band (OpenGL style) V3/Textures/hot.CUBE
#Created by: Adobe Photoshop Export Color Lookup Plugin
TITLE "Untitled-1"
#LUT size
LUT_3D_SIZE 32
#data domain
DOMAIN_MIN 0.0 0.0 0.0
DOMAIN_MAX 1.0 1.0 1.0
#LUT data points
0.000000 0.000000 0.000000
0.188477 0.000000 0.000000
0.325348 0.000000 0.000000
0.407867 0.000000 0.000000
0.478851 0.000000 0.000000
0.544037 0.000000 0.000000
0.605042 0.000000 0.000000
0.663269 0.000000 0.000000
0.719147 0.000000 0.000000
0.773499 0.000000 0.000000
0.826355 0.000000 0.000000
0.878082 0.000000 0.000000
0.928040 0.000000 0.000000
0.972595 0.000000 0.000000
1.000000 0.000000 0.000000
1.000000 0.000000 0.000000
1.000000 0.000000 0.000000
1.000000 0.000000 0.000000
1.000000 0.000000 0.000000
1.000000 0.000000 0.000000
1.000000 0.000000 0.000000
1.000000 0.000000 0.000000
1.000000 0.000000 0.000000
1.000000 0.000000 0.000000
1.000000 0.000000 0.000000
1.000000 0.000000 0.000000
1.000000 0.000000 0.000000
1.000000 0.000000 0.000000
1.000000 0.000000 0.000000
1.000000 0.000000 0.000000
1.000000 0.000000 0.000000
1.000000 0.000000 0.000000
0.000000 0.000000 0.000000
0.184784 0.000000 0.000000
0.323914 0.000000 0.000000
0.407379 0.000000 0.000000
0.478577 0.000000 0.000000
0.543671 0.000000 0.000000
0.604797 0.000000 0.000000
0.663177 0.000000 0.000000
0.719025 0.000000 0.000000
0.773376 0.000000 0.000000
0.826294 0.000000 0.000000
0.878052 0.000000 0.000000
0.928009 0.000000 0.000000
0.972565 0.000000 0.000000
1.000000 0.000000 0.000000
1.000000 0.000000 0.000000
1.000000 0.000000 0.000000
1.000000 0.000000 0.000000
1.000000 0.000000 0.000000
1.000000 0.000000 0.000000
1.000000 0.000000 0.000000
1.000000 0.000000 0.000000
1.000000 0.000000 0.000000
1.000000 0.000000 0.000000
1.000000 0.000000 0.000000
1.000000 0.000000 0.000000
1.000000 0.000000 0.000000
1.000000 0.000000 0.000000
1.000000 0.000000 0.000000
1.000000 0.000000 0.000000
1.000000 0.000000 0.000000
1.000000 0.000000 0.000000
1.000000 1.000000 0.841309
1.000000 1.000000 0.841309
1.000000 1.000000 0.841309
1.000000 1.000000 0.841309
1.000000 1.000000 0.841309
1.000000 1.000000 0.841309
1.000000 1.000000 0.841309
1.000000 1.000000 0.832336
1.000000 1.000000 0.832062
1.000000 1.000000 0.841034
1.000000 1.000000 0.832062
1.000000 1.000000 0.832062
1.000000 1.000000 0.832062
1.000000 1.000000 0.822144
1.000000 1.000000 0.822144
1.000000 1.000000 0.812714
1.000000 1.000000 0.803314
1.000000 1.000000 0.793182
1.000000 1.000000 0.783386
1.000000 1.000000 0.783813
1.000000 1.000000 0.763550
1.000000 1.000000 0.742584
1.000000 1.000000 0.743347
1.000000 1.000000 0.733337
1.000000 1.000000 0.712524
1.000000 1.000000 0.702515
1.000000 1.000000 0.703308
1.000000 1.000000 0.693878
1.000000 0.997223 0.682922
1.000000 0.993683 0.683655
1.000000 0.986389 0.684906
1.000000 0.982635 0.673828
1.000000 1.000000 0.832062
1.000000 1.000000 0.841034
1.000000 1.000000 0.832062
1.000000 1.000000 0.832336
1.000000 1.000000 0.832336
1.000000 1.000000 0.832336
1.000000 1.000000 0.832336
1.000000 1.000000 0.832336
1.000000 1.000000 0.832336
1.000000 1.000000 0.841034
1.000000 1.000000 0.832062
1.000000 1.000000 0.832062
1.000000 1.000000 0.832062
1.000000 1.000000 0.832062
1.000000 1.000000 0.832062
1.000000 1.000000 0.832062
1.000000 1.000000 0.822144
1.000000 1.000000 0.822144
1.000000 1.000000 0.822144
1.000000 1.000000 0.822144
1.000000 1.000000 0.812714
1.000000 1.000000 0.812714
1.000000 1.000000 0.803314
1.000000 1.000000 0.793182
1.000000 1.000000 0.783386
1.000000 1.000000 0.783600
1.000000 1.000000 0.763306
1.000000 1.000000 0.742584
1.000000 1.000000 0.743561
1.000000 1.000000 0.722778
1.000000 1.000000 0.713013
1.000000 1.000000 0.702728
1.000000 1.000000 0.850128
1.000000 1.000000 0.850128
1.000000 1.000000 0.850128
1.000000 1.000000 0.850128
1.000000 1.000000 0.850128
1.000000 1.000000 0.850128
1.000000 1.000000 0.850128
1.000000 1.000000 0.850128
1.000000 1.000000 0.850128
1.000000 1.000000 0.850128
1.000000 1.000000 0.850128
1.000000 1.000000 0.850128
1.000000 1.000000 0.850128
1.000000 1.000000 0.850128
1.000000 1.000000 0.850128
1.000000 1.000000 0.850128
1.000000 1.000000 0.841034
1.000000 1.000000 0.841034
1.000000 1.000000 0.841034
1.000000 1.000000 0.841034
1.000000 1.000000 0.841034
1.000000 1.000000 0.832062
1.000000 1.000000 0.832062
1.000000 1.000000 0.832062
1.000000 1.000000 0.822144
1.000000 1.000000 0.822144
1.000000 1.000000 0.812714
1.000000 1.000000 0.803040
1.000000 1.000000 0.803314
1.000000 1.000000 0.803314
1.000000 1.000000 0.793182
1.000000 1.000000 0.793610
1.000000 1.000000 0.859436
1.000000 1.000000 0.859436
1.000000 1.000000 0.859436
1.000000 1.000000 0.859436
1.000000 1.000000 0.850128
1.000000 1.000000 0.850128
1.000000 1.000000 0.850128
1.000000 1.000000 0.850128
1.000000 1.000000 0.850128
1.000000 1.000000 0.850128
1.000000 1.000000 0.850128
1.000000 1.000000 0.850128
1.000000 1.000000 0.850128
1.000000 1.000000 0.850128
1.000000 1.000000 0.850128
1.000000 1.000000 0.850128
1.000000 1.000000 0.850128
1.000000 1.000000 0.850128
1.000000 1.000000 0.850128
1.000000 1.000000 0.850128
1.000000 1.000000 0.850128
1.000000 1.000000 0.850128
1.000000 1.000000 0.850128
1.000000 1.000000 0.850128
1.000000 1.000000 0.850128
1.000000 1.000000 0.840759
1.000000 1.000000 0.840759
1.000000 1.000000 0.840759
1.000000 1.000000 0.840759
1.000000 1.000000 0.840759
1.000000 1.000000 0.840759
1.000000 1.000000 0.831787
1.000000 1.000000 0.868195
1.000000 1.000000 0.868195
1.000000 1.000000 0.868195
1.000000 1.000000 0.868195
1.000000 1.000000 0.868195
1.000000 1.000000 0.859436
1.000000 1.000000 0.859436
1.000000 1.000000 0.859436
1.000000 1.000000 0.859436
1.000000 1.000000 0.859436
1.000000 1.000000 0.859436
1.000000 1.000000 0.859436
1.000000 1.000000 0.859436
1.000000 1.000000 0.859436
1.000000 1.000000 0.859436
1.000000 1.000000 0.859436
1.000000 1.000000 0.859436
1.000000 1.000000 0.859436
1.000000 1.000000 0.859436
1.000000 1.000000 0.859436
1.000000 1.000000 0.859436
1.000000 1.000000 0.859436
1.000000 1.000000 0.859436
1.000000 1.000000 0.859436
1.000000 1.000000 0.859436
1.000000 1.000000 0.859436
1.000000 1.000000 0.859436
1.000000 1.000000 0.859436
1.000000 1.000000 0.850128
1.000000 1.000000 0.850128
1.000000 1.000000 0.850128
1.000000 1.000000 0.859436
1.000000 1.000000 0.876984
1.000000 1.000000 0.876984
1.000000 1.000000 0.876984
1.000000 1.000000 0.876984
1.000000 1.000000 0.876984
1.000000 1.000000 0.876984
1.000000 1.000000 0.876984
1.000000 1.000000 0.868195
1.000000 1.000000 0.868195
1.000000 1.000000 0.868195
1.000000 1.000000 0.868195
1.000000 1.000000 0.868195
1.000000 1.000000 0.859436
1.000000 1.000000 0.859436
1.000000 1.000000 0.859436
1.000000 1.000000 0.859436
1.000000 1.000000 0.859436
1.000000 1.000000 0.859436
1.000000 1.000000 0.859436
1.000000 1.000000 0.859436
1.000000 1.000000 0.859436
1.000000 1.000000 0.859436
1.000000 1.000000 0.859436
1.000000 1.000000 0.859436
1.000000 1.000000 0.868195
1.000000 1.000000 0.859436
1.000000 1.000000 0.859436
1.000000 1.000000 0.859436
1.000000 1.000000 0.859436
1.000000 1.000000 0.859436
1.000000 1.000000 0.859436
1.000000 1.000000 0.859436
1.000000 1.000000 0.885437
1.000000 1.000000 0.876984
1.000000 1.000000 0.885437
1.000000 1.000000 0.876984
1.000000 1.000000 0.885193
1.000000 1.000000 0.876709
1.000000 1.000000 0.876709
1.000000 1.000000 0.876709
1.000000 1.000000 0.876984
1.000000 1.000000 0.876984
1.000000 1.000000 0.876984
1.000000 1.000000 0.876984
1.000000 1.000000 0.876984
1.000000 1.000000 0.876984
1.000000 1.000000 0.876984
1.000000 1.000000 0.876984
1.000000 1.000000 0.876984
1.000000 1.000000 0.868195
1.000000 1.000000 0.876984
1.000000 1.000000 0.876984
1.000000 1.000000 0.876984
1.000000 1.000000 0.876984
1.000000 1.000000 0.876984
1.000000 1.000000 0.876984
1.000000 1.000000 0.876984
1.000000 1.000000 0.868195
1.000000 1.000000 0.868195
1.000000 1.000000 0.868195
1.000000 1.000000 0.868195
1.000000 1.000000 0.868195
1.000000 1.000000 0.868195
1.000000 1.000000 0.868195
1.000000 1.000000 0.885437
1.000000 1.000000 0.885437
1.000000 1.000000 0.885437
1.000000 1.000000 0.885437
1.000000 1.000000 0.885437
1.000000 1.000000 0.885437
1.000000 1.000000 0.876709
1.000000 1.000000 0.876709
1.000000 1.000000 0.876709
1.000000 1.000000 0.876709
1.000000 1.000000 0.876709
1.000000 1.000000 0.876709
1.000000 1.000000 0.876709
1.000000 1.000000 0.876709
1.000000 1.000000 0.876709
1.000000 1.000000 0.876709
1.000000 1.000000 0.876709
1.000000 1.000000 0.876709
1.000000 1.000000 0.876709
1.000000 1.000000 0.876709
1.000000 1.000000 0.876709
1.000000 1.000000 0.876709
1.000000 1.000000 0.876984
1.000000 1.000000 0.868195
1.000000 1.000000 0.868195
1.000000 1.000000 0.868195
1.000000 1.000000 0.868195
1.000000 1.000000 0.868195
1.000000 1.000000 0.868195
1.000000 1.000000 0.868195
1.000000 1.000000 0.859222
1.000000 1.000000 0.859222
1.000000 1.000000 0.885437
1.000000 1.000000 0.885437
1.000000 1.000000 0.876984
1.000000 1.000000 0.876984
1.000000 1.000000 0.876984
1.000000 1.000000 0.876984
1.000000 1.000000 0.876709
1.000000 1.000000 0.876709
1.000000 1.000000 0.876984
1.000000 1.000000 0.876709
1.000000 1.000000 0.876709
1.000000 1.000000 0.867920
1.000000 1.000000 0.867920
1.000000 1.000000 0.868195
1.000000 1.000000 0.868195
1.000000 1.000000 0.868195
1.000000 1.000000 0.868195
1.000000 1.000000 0.859222
1.000000 1.000000 0.859222
1.000000 1.000000 0.859222
1.000000 1.000000 0.859222
1.000000 1.000000 0.859222
1.000000 1.000000 0.850128
1.000000 1.000000 0.850128
1.000000 1.000000 0.850128
1.000000 1.000000 0.850128
1.000000 1.000000 0.840759
1.000000 1.000000 0.840759
1.000000 1.000000 0.840759
1.000000 1.000000 0.832062
1.000000 1.000000 0.832062
1.000000 1.000000 0.832062
1.000000 1.000000 0.876984
1.000000 1.000000 0.876709
1.000000 1.000000 0.867920
1.000000 1.000000 0.868195
1.000000 1.000000 0.868195
1.000000 1.000000 0.868195
1.000000 1.000000 0.859436
1.000000 1.000000 0.859222
1.000000 1.000000 0.859222
1.000000 1.000000 0.859436
1.000000 1.000000 0.850128
1.000000 1.000000 0.850128
1.000000 1.000000 0.850128
1.000000 1.000000 0.850128
1.000000 1.000000 0.840759
1.000000 1.000000 0.840759
1.000000 1.000000 0.840759
1.000000 1.000000 0.841034
1.000000 1.000000 0.841034
1.000000 1.000000 0.832062
1.000000 1.000000 0.822418
1.000000 1.000000 0.822418
1.000000 1.000000 0.812714
1.000000 1.000000 0.812988
1.000000 1.000000 0.803314
1.000000 1.000000 0.803314
1.000000 1.000000 0.803314
1.000000 1.000000 0.803314
1.000000 1.000000 0.803314
1.000000 1.000000 0.803314
1.000000 1.000000 0.812988
1.000000 1.000000 0.803314
1.000000 1.000000 0.859436
1.000000 1.000000 0.859436
1.000000 1.000000 0.859436
1.000000 1.000000 0.850128
1.000000 1.000000 0.850128
1.000000 1.000000 0.840759
1.000000 1.000000 0.841034
1.000000 1.000000 0.832062
1.000000 1.000000 0.822144
1.000000 1.000000 0.812714
1.000000 1.000000 0.803040
1.000000 0.787201 0.000000
1.000000 0.714935 0.000000
0.996613 0.672638 0.000000
0.973236 0.581848 0.000000
0.876984 0.409241 0.000000
0.839294 0.340698 0.000000
0.840363 0.297760 0.000000
0.835144 0.246887 0.000000
0.827667 0.280884 0.000000
0.894409 0.501862 0.000000
0.814087 0.551361 0.000000
0.799774 0.575531 0.000000
0.813385 0.575500 0.000000
0.833893 0.567322 0.000000
0.840363 0.575348 0.000000
0.840363 0.575348 0.000000
0.825989 0.614410 0.000000
0.832825 0.614349 0.000000
0.831299 0.674438 0.000000
0.854340 0.844299 0.000000
0.807770 0.790314 0.000000
0.816742 0.710236 0.000000
0.852661 0.621948 0.000000
0.825470 0.366791 0.000000
0.871460 0.366425 0.000000
0.857849 0.392303 0.000000
0.878113 0.666718 0.000000
0.882751 0.764191 0.000000
0.889252 0.764099 0.000000
1.000000 0.875458 0.000000
0.994934 0.788513 0.000000
0.869812 0.443420 0.000000
0.854950 0.518555 0.000000
0.858795 0.644470 0.000000
0.874847 0.510254 0.000000
0.827484 0.289246 0.000000
0.859924 0.306244 0.000000
0.873169 0.297455 0.000000
0.874725 0.229767 0.000000
0.876556 0.157013 0.000000
0.859314 0.065826 0.000000
0.859467 0.055756 0.000000
0.859711 0.046631 0.000000
0.872681 0.034149 0.000000
0.878571 0.046387 0.000000
0.859100 0.082092 0.000000
0.864929 0.113373 0.000000
0.843201 0.197113 0.000000
0.887299 0.534698 0.000000
0.901550 0.789612 0.000000
0.862823 0.460327 0.000000
0.903961 0.348724 0.000000
0.871613 0.357788 0.000000
1.000000 0.085754 0.000000
1.000000 0.104675 0.000000
1.000000 0.132751 0.000000
1.000000 0.140137 0.000000
1.000000 0.140137 0.000000
1.000000 0.132690 0.000000
1.000000 0.132690 0.000000
1.000000 0.125427 0.000000
1.000000 0.125427 0.000000
1.000000 0.098175 0.000000
1.000000 0.068542 0.000000
1.000000 0.074036 0.000000
1.000000 0.074036 0.000000
1.000000 0.079742 0.000000
1.000000 0.079712 0.000000
1.000000 0.068512 0.000000
1.000000 0.098175 0.000000
1.000000 0.125427 0.000000
1.000000 0.140106 0.000000
1.000000 0.140106 0.000000
1.000000 0.140137 0.000000
1.000000 0.140137 0.000000
1.000000 0.140137 0.000000
1.000000 0.132690 0.000000
1.000000 0.132751 0.000000
1.000000 0.125427 0.000000
1.000000 0.125427 0.000000
1.000000 0.118286 0.000000
1.000000 0.118286 0.000000
1.000000 0.132751 0.000000
1.000000 0.155579 0.000000
1.000000 0.179443 0.000000
1.000000 0.976379 0.000000
1.000000 0.221008 0.000000
1.000000 0.171753 0.000000
1.000000 0.155762 0.000000
1.000000 0.148010 0.000000
1.000000 0.171539 0.000000
1.000000 0.179626 0.000000
1.000000 0.195709 0.000000
1.000000 0.212067 0.000000
1.000000 0.220337 0.000000
1.000000 0.237000 0.000000
1.000000 0.236938 0.000000
1.000000 0.253754 0.000000
1.000000 0.262238 0.000000
1.000000 0.279327 0.000000
1.000000 0.279327 0.000000
1.000000 0.287903 0.000000
1.000000 0.305084 0.000000
1.000000 0.313599 0.000000
1.000000 0.304993 0.000000
1.000000 0.304993 0.000000
1.000000 0.304993 0.000000
1.000000 0.304993 0.000000
1.000000 0.287781 0.000000
1.000000 0.287781 0.000000
1.000000 0.287781 0.000000
1.000000 0.287781 0.000000
1.000000 0.287781 0.000000
1.000000 0.287781 0.000000
1.000000 0.287781 0.000000
1.000000 0.305054 0.000000
1.000000 0.304993 0.000000
1.000000 0.999268 0.000000
1.000000 0.955933 0.000000
1.000000 0.509308 0.000000
1.000000 0.442535 0.000000
1.000000 0.459412 0.000000
1.000000 0.484650 0.000000
1.000000 0.450928 0.000000
1.000000 0.425629 0.000000
1.000000 0.605164 0.000000
1.000000 0.374359 0.000000
1.000000 0.442383 0.000000
1.000000 0.459259 0.000000
1.000000 0.475922 0.000000
1.000000 0.467377 0.000000
1.000000 0.500824 0.000000
1.000000 0.509033 0.000000
1.000000 0.525360 0.000000
1.000000 0.541504 0.000000
1.000000 0.557526 0.000000
1.000000 0.581512 0.000000
1.000000 0.597015 0.000000
1.000000 0.604736 0.000000
1.000000 0.619995 0.000000
1.000000 0.604645 0.000000
1.000000 0.619965 0.000000
1.000000 0.627625 0.000000
1.000000 0.627625 0.000000
1.000000 0.642731 0.000000
1.000000 0.649994 0.000000
1.000000 0.664703 0.000000
1.000000 0.664703 0.000000
1.000000 0.686584 0.000000
1.000000 0.262909 0.000000
1.000000 0.133148 0.000000
1.000000 0.155975 0.000000
1.000000 0.140503 0.000000
1.000000 0.155670 0.000000
1.000000 0.171356 0.000000
1.000000 0.195740 0.000000
1.000000 0.203827 0.000000
1.000000 0.203705 0.000000
1.000000 0.220367 0.000000
1.000000 0.245453 0.000000
1.000000 0.262299 0.000000
1.000000 0.270844 0.000000
1.000000 0.270782 0.000000
1.000000 0.279327 0.000000
1.000000 0.287781 0.000000
1.000000 0.304993 0.000000
1.000000 0.313599 0.000000
1.000000 0.313538 0.000000
1.000000 0.330841 0.000000
1.000000 0.330780 0.000000
1.000000 0.339417 0.000000
1.000000 0.339417 0.000000
1.000000 0.339417 0.000000
1.000000 0.330780 0.000000
1.000000 0.313538 0.000000
1.000000 0.330780 0.000000
1.000000 0.339417 0.000000
1.000000 0.330719 0.000000
1.000000 0.356567 0.000000
1.000000 0.365204 0.000000
1.000000 0.382477 0.000000
1.000000 0.313446 0.000000
1.000000 0.321991 0.000000
1.000000 0.339386 0.000000
1.000000 0.339386 0.000000
1.000000 0.339386 0.000000
1.000000 0.339386 0.000000
1.000000 0.339386 0.000000
1.000000 0.339386 0.000000
1.000000 0.356567 0.000000
1.000000 0.356567 0.000000
1.000000 0.356567 0.000000
1.000000 0.356567 0.000000
1.000000 0.365204 0.000000
1.000000 0.321991 0.000000
1.000000 0.313446 0.000000
1.000000 0.321991 0.000000
1.000000 0.313477 0.000000
1.000000 0.313477 0.000000
1.000000 0.296326 0.000000
1.000000 0.296326 0.000000
1.000000 0.296326 0.000000
1.000000 0.296356 0.000000
1.000000 0.296356 0.000000
1.000000 0.304993 0.000000
1.000000 0.296326 0.000000
1.000000 0.296326 0.000000
1.000000 0.287781 0.000000
1.000000 0.287781 0.000000
1.000000 0.313538 0.000000
1.000000 0.304993 0.000000
1.000000 0.279266 0.000000
1.000000 0.262268 0.000000
0.856293 0.460388 0.000000
0.890106 0.723694 0.000000
0.848755 0.796326 0.000000
0.983582 0.897278 0.000000
1.000000 1.000000 0.228912
1.000000 1.000000 0.150330
0.982971 0.936554 0.000000
0.881409 0.826538 0.000000
0.916077 0.673676 0.000000
0.864685 0.374908 0.000000
0.897858 0.340302 0.000000
0.885254 0.331787 0.000000
0.886078 0.297272 0.000000
0.886566 0.271698 0.000000
0.892944 0.271667 0.000000
0.917999 0.262939 0.000000
0.923828 0.271423 0.000000
0.929810 0.262848 0.000000
0.923920 0.262878 0.000000
0.923828 0.271423 0.000000
0.923828 0.271423 0.000000
0.908173 0.156555 0.000000
0.896118 0.126740 0.000000
0.889893 0.126862 0.000000
0.876984 0.141571 0.000000
0.882782 0.164703 0.000000
0.912811 0.221100 0.000000
0.893494 0.246277 0.000000
0.905762 0.263031 0.000000
0.873901 0.558899 0.000000
0.895996 0.750519 0.000000
0.873322 0.582916 0.000000
1.000000 0.772980 0.210693
0.693695 0.535736 0.000000
0.648346 0.083557 0.000000
0.805847 0.861542 0.000000
0.805481 0.877960 0.000000
0.819397 0.877869 0.000000
0.791412 0.878082 0.000000
0.769501 0.888947 0.000000
0.826477 0.872528 0.000000
0.826813 0.855927 0.000000
0.827026 0.850159 0.000000
0.841827 0.802734 0.000000
0.803162 0.452423 0.000000
0.847229 0.567169 0.000000
0.851837 0.366577 0.000000
0.865051 0.106750 0.000000
0.865906 0.051086 0.000000
0.872833 0.026855 0.000000
0.860168 0.026978 0.000000
0.872833 0.026855 0.000000
0.872772 0.030457 0.000000
0.872040 0.060547 0.000000
0.906372 0.237854 0.000000
0.905609 0.271545 0.000000
0.911469 0.288635 0.000000
0.911224 0.297058 0.000000
0.910980 0.305756 0.000000
0.891785 0.323090 0.000000
0.897858 0.340302 0.000000
0.897705 0.348785 0.000000
0.897949 0.331696 0.000000
0.839844 0.598846 0.000000
1.000000 0.871429 0.324951
1.000000 0.892242 0.362152
1.000000 0.907410 0.373749
1.000000 0.926422 0.371887
1.000000 0.944489 0.396484
1.000000 0.965637 0.434143
1.000000 0.977600 0.458527
1.000000 0.992981 0.470123
1.000000 1.000000 0.494720
1.000000 1.000000 0.544952
1.000000 1.000000 0.556427
1.000000 1.000000 0.580658
1.000000 1.000000 0.604950
1.000000 1.000000 0.604736
1.000000 1.000000 0.604736
1.000000 1.000000 0.617035
1.000000 1.000000 0.629303
1.000000 1.000000 0.617035
1.000000 1.000000 0.617432
1.000000 1.000000 0.617432
1.000000 1.000000 0.629517
1.000000 1.000000 0.641449
1.000000 1.000000 0.641449
1.000000 1.000000 0.641449
1.000000 1.000000 0.641205
1.000000 1.000000 0.652863
1.000000 1.000000 0.664764
1.000000 1.000000 0.676575
1.000000 1.000000 0.676392
1.000000 1.000000 0.699219
1.000000 1.000000 0.699707
1.000000 1.000000 0.699463
1.000000 0.892242 0.336273
1.000000 0.897278 0.335754
1.000000 0.912170 0.347443
1.000000 0.926422 0.385132
1.000000 0.944489 0.383698
1.000000 0.965637 0.434143
1.000000 0.981659 0.458344
1.000000 0.996368 0.469940
1.000000 1.000000 0.494720
1.000000 1.000000 0.519684
1.000000 1.000000 0.544281
1.000000 1.000000 0.556244
1.000000 1.000000 0.580902
1.000000 1.000000 0.605194
1.000000 1.000000 0.629517
1.000000 1.000000 0.629303
1.000000 1.000000 0.641449
1.000000 1.000000 0.641449
1.000000 1.000000 0.641205
1.000000 1.000000 0.641205
1.000000 1.000000 0.641205
1.000000 1.000000 0.641449
1.000000 1.000000 0.641449
1.000000 1.000000 0.629761
1.000000 1.000000 0.605438
1.000000 1.000000 0.605896
1.000000 1.000000 0.617798
1.000000 1.000000 0.630005
1.000000 1.000000 0.642029
1.000000 1.000000 0.642029
1.000000 1.000000 0.677185
1.000000 1.000000 0.688477
1.000000 0.985352 0.457977
1.000000 0.992981 0.470123
1.000000 0.992981 0.470123
1.000000 0.996368 0.469940
1.000000 1.000000 0.495361
1.000000 1.000000 0.507416
1.000000 1.000000 0.532959
1.000000 1.000000 0.545380
1.000000 1.000000 0.557068
1.000000 1.000000 0.581573
1.000000 1.000000 0.606140
1.000000 1.000000 0.617981
1.000000 1.000000 0.630249
1.000000 1.000000 0.642242
1.000000 1.000000 0.642242
1.000000 1.000000 0.665985
1.000000 1.000000 0.665985
1.000000 1.000000 0.665985
1.000000 1.000000 0.666229
1.000000 1.000000 0.677612
1.000000 1.000000 0.666473
1.000000 1.000000 0.677856
1.000000 1.000000 0.678375
1.000000 1.000000 0.678375
1.000000 1.000000 0.702118
1.000000 1.000000 0.702332
1.000000 1.000000 0.702515
1.000000 1.000000 0.702911
1.000000 1.000000 0.713409
1.000000 1.000000 0.702728
1.000000 1.000000 0.702515
1.000000 1.000000 0.702515
1.000000 0.981537 0.458344
1.000000 0.981537 0.458344
1.000000 0.985413 0.470978
1.000000 0.989166 0.470551
1.000000 0.996490 0.495789
1.000000 0.996368 0.508392
1.000000 1.000000 0.520203
1.000000 1.000000 0.545380
1.000000 1.000000 0.569611
1.000000 1.000000 0.581818
1.000000 1.000000 0.593842
1.000000 1.000000 0.606140
1.000000 1.000000 0.617981
1.000000 1.000000 0.642242
1.000000 1.000000 0.642242
1.000000 1.000000 0.642242
1.000000 1.000000 0.642242
1.000000 1.000000 0.642242
1.000000 1.000000 0.665985
1.000000 1.000000 0.654327
1.000000 1.000000 0.654327
1.000000 1.000000 0.666473
1.000000 1.000000 0.677856
1.000000 1.000000 0.666718
1.000000 1.000000 0.654572
1.000000 1.000000 0.666229
1.000000 1.000000 0.665741
1.000000 1.000000 0.653351
1.000000 1.000000 0.652863
1.000000 1.000000 0.641205
1.000000 1.000000 0.641205
1.000000 1.000000 0.641205
1.000000 1.000000 0.507233
1.000000 1.000000 0.507080
1.000000 1.000000 0.519684
1.000000 1.000000 0.519501
1.000000 1.000000 0.519684
1.000000 1.000000 0.532074
1.000000 1.000000 0.531860
1.000000 1.000000 0.531860
1.000000 1.000000 0.544281
1.000000 1.000000 0.544281
1.000000 1.000000 0.544067
1.000000 1.000000 0.544067
1.000000 1.000000 0.556427
1.000000 1.000000 0.569061
1.000000 1.000000 0.568695
1.000000 1.000000 0.581116
1.000000 1.000000 0.580902
1.000000 1.000000 0.593292
1.000000 1.000000 0.605438
1.000000 1.000000 0.605438
1.000000 1.000000 0.605438
1.000000 1.000000 0.593109
1.000000 1.000000 0.605438
1.000000 1.000000 0.605438
1.000000 1.000000 0.605438
1.000000 1.000000 0.605438
1.000000 1.000000 0.605682
1.000000 1.000000 0.580902
1.000000 1.000000 0.568695
1.000000 1.000000 0.568878
1.000000 1.000000 0.569061
1.000000 1.000000 0.568878
1.000000 0.999939 0.469299
1.000000 1.000000 0.469299
1.000000 0.996277 0.469513
1.000000 0.996277 0.469513
1.000000 0.996277 0.469513
1.000000 1.000000 0.469299
1.000000 1.000000 0.469299
1.000000 1.000000 0.469299
1.000000 1.000000 0.469299
1.000000 1.000000 0.469116
1.000000 1.000000 0.482239
1.000000 1.000000 0.482239
1.000000 1.000000 0.482025
1.000000 1.000000 0.481842
1.000000 1.000000 0.494293
1.000000 1.000000 0.519501
1.000000 1.000000 0.519165
1.000000 1.000000 0.519165
1.000000 1.000000 0.531647
1.000000 1.000000 0.531647
1.000000 1.000000 0.544281
1.000000 1.000000 0.544281
1.000000 1.000000 0.544281
1.000000 1.000000 0.544281
1.000000 1.000000 0.556427
1.000000 1.000000 0.569061
1.000000 1.000000 0.568695
1.000000 1.000000 0.555908
1.000000 1.000000 0.568512
1.000000 1.000000 0.568512
1.000000 1.000000 0.568298
1.000000 1.000000 0.568298
1.000000 0.948669 0.383087
1.000000 0.948730 0.383392
1.000000 0.944489 0.370483
1.000000 0.935425 0.371063
1.000000 0.930756 0.371368
1.000000 0.930756 0.371368
1.000000 0.930756 0.371368
1.000000 0.930756 0.358643
1.000000 0.930756 0.358643
1.000000 0.935425 0.371063
1.000000 0.939941 0.383698
1.000000 0.944427 0.383392
1.000000 0.953186 0.382782
1.000000 0.961517 0.394836
1.000000 0.965607 0.394562
1.000000 0.969666 0.394257
1.000000 0.973602 0.406860
1.000000 0.973602 0.406860
