Console Band (OpenGL style) V3/Textures/ye.CUBE
#Created by: Adobe Photoshop Export Color Lookup Plugin
TITLE "ye"
#LUT size
LUT_3D_SIZE 32
#data domain
DOMAIN_MIN 0.0 0.0 0.0
DOMAIN_MAX 1.0 1.0 1.0
#LUT data points
0.000000 0.000000 0.000000
0.010712 0.000000 0.003571
0.021545 0.000000 0.007172
0.032471 0.000000 0.010834
0.043579 0.000000 0.014526
0.054779 0.000000 0.018250
0.066132 0.000000 0.022034
0.077606 0.000000 0.025848
0.089203 0.000000 0.029724
0.100922 0.000000 0.033630
0.112793 0.000000 0.037598
0.124786 0.000000 0.041595
0.136902 0.000000 0.045624
0.149170 0.000000 0.049713
0.161530 0.000000 0.053833
0.174042 0.000000 0.058014
0.186768 0.000000 0.062256
0.200134 0.000000 0.066681
0.214294 0.000000 0.071411
0.229370 0.000000 0.076447
0.245544 0.000000 0.081818
0.262909 0.000000 0.087616
0.281738 0.000000 0.093903
0.302277 0.000000 0.100739
0.324982 0.000000 0.108307
0.349792 0.000000 0.116577
0.376984 0.000000 0.125641
0.407410 0.000000 0.135773
0.442444 0.000000 0.147430
0.484802 0.000000 0.161560
0.540924 0.000000 0.180267
0.640015 0.000000 0.213287
0.003571 0.010712 0.000000
0.010712 0.007141 0.000000
0.021545 0.003540 0.000000
0.032471 0.000000 0.000122
0.043579 0.000000 0.003815
0.054779 0.000000 0.007538
0.066132 0.000000 0.011322
0.077606 0.000000 0.015167
0.089203 0.000000 0.019012
0.100922 0.000000 0.022919
0.112793 0.000000 0.026886
0.124786 0.000000 0.030853
0.136902 0.000000 0.034912
0.149170 0.000000 0.039001
0.161530 0.000000 0.043091
0.174042 0.000000 0.047302
0.186768 0.000000 0.051514
0.200134 0.000000 0.056000
0.214294 0.000000 0.060699
0.229370 0.000000 0.065735
0.245544 0.000000 0.071106
0.262909 0.000000 0.076904
0.281738 0.000000 0.083160
0.302277 0.000000 0.090027
0.324982 0.000000 0.097595
0.349792 0.000000 0.105896
0.376984 0.000000 0.114960
0.407410 0.000000 0.125031
0.442444 0.000000 0.136749
0.484802 0.000000 0.150787
0.540924 0.000000 0.169556
0.640015 0.000000 0.202515
0.007172 0.021545 0.000000
0.017883 0.021545 0.000000
0.021545 0.014374 0.000000
0.032471 0.010712 0.000000
0.043579 0.007019 0.000000
0.054779 0.003296 0.000000
0.066132 0.000000 0.000488
0.077606 0.000000 0.004333
0.089203 0.000000 0.008179
0.100922 0.000000 0.012085
0.112793 0.000000 0.016052
0.124786 0.000000 0.020050
0.136902 0.000000 0.024078
0.149170 0.000000 0.028137
0.161530 0.000000 0.032288
0.174042 0.000000 0.036469
0.186768 0.000000 0.040680
0.200134 0.000000 0.045135
0.214294 0.000000 0.049866
0.229370 0.000000 0.054871
0.245544 0.000000 0.060303
0.262909 0.000000 0.066040
0.281738 0.000000 0.072357
0.302277 0.000000 0.079193
0.324982 0.000000 0.086731
0.349792 0.000000 0.095062
0.376984 0.000000 0.104095
0.407410 0.000000 0.114197
0.442444 0.000000 0.125946
0.484802 0.000000 0.140015
0.540924 0.000000 0.158752
0.640015 0.000000 0.191711
0.010834 0.032471 0.000000
0.021545 0.032471 0.000000
0.032379 0.032471 0.000000
0.032471 0.021637 0.000000
0.043579 0.017944 0.000000
0.054779 0.014221 0.000000
0.066132 0.010437 0.000000
0.077606 0.006622 0.000000
0.089203 0.002747 0.000000
0.100922 0.000000 0.001160
0.112793 0.000000 0.005127
0.124786 0.000000 0.009094
0.136902 0.000000 0.013184
0.149170 0.000000 0.017212
0.161530 0.000000 0.021362
0.174042 0.000000 0.025543
0.186768 0.000000 0.029785
0.200134 0.000000 0.034210
0.214294 0.000000 0.038910
0.229370 0.000000 0.043945
0.245544 0.000000 0.049347
0.262909 0.000000 0.055145
0.281738 0.000000 0.061432
0.302277 0.000000 0.068268
0.324982 0.000000 0.075836
0.349792 0.000000 0.084106
0.376984 0.000000 0.093140
0.407410 0.000000 0.103333
0.442444 0.000000 0.114929
0.484802 0.000000 0.129120
0.540924 0.000000 0.147766
0.640015 0.000000 0.180786
0.014526 0.043579 0.000000
0.025238 0.043579 0.000000
0.036072 0.043579 0.000000
0.043579 0.040161 0.000000
0.043579 0.029053 0.000000
0.054779 0.025330 0.000000
0.066132 0.021545 0.000000
0.077606 0.017700 0.000000
0.089203 0.013855 0.000000
0.100922 0.009949 0.000000
0.112793 0.006012 0.000000
0.124786 0.001984 0.000000
0.136902 0.000000 0.002045
0.149170 0.000000 0.006104
0.161530 0.000000 0.010254
0.174042 0.000000 0.014404
0.186768 0.000000 0.018646
0.200134 0.000000 0.023102
0.214294 0.000000 0.027832
0.229370 0.000000 0.032867
0.245544 0.000000 0.038239
0.262909 0.000000 0.044037
0.281738 0.000000 0.050293
0.302277 0.000000 0.057129
0.324982 0.000000 0.064728
0.349792 0.000000 0.073029
0.376984 0.000000 0.082092
0.407410 0.000000 0.092194
0.442444 0.000000 0.103912
0.484802 0.000000 0.118011
0.540924 0.000000 0.136688
0.640015 0.000000 0.169678
0.018250 0.054779 0.000000
0.028961 0.054779 0.000000
0.039795 0.054779 0.000000
0.050720 0.054779 0.000000
0.054779 0.047729 0.000000
0.054779 0.036530 0.000000
0.066132 0.032745 0.000000
0.077606 0.028900 0.000000
0.089203 0.025055 0.000000
0.100922 0.021149 0.000000
0.112793 0.017181 0.000000
0.124786 0.013184 0.000000
0.136902 0.009155 0.000000
0.149170 0.005066 0.000000
0.161530 0.000946 0.000000
0.174042 0.000000 0.003235
0.186768 0.000000 0.007477
0.200134 0.000000 0.011932
0.214294 0.000000 0.016632
0.229370 0.000000 0.021667
0.245544 0.000000 0.027039
0.262909 0.000000 0.032867
0.281738 0.000000 0.039124
0.302277 0.000000 0.045990
0.324982 0.000000 0.053558
0.349792 0.000000 0.061829
0.376984 0.000000 0.070862
0.407410 0.000000 0.080963
0.442444 0.000000 0.092682
0.484802 0.000000 0.106750
0.540924 0.000000 0.125458
0.640015 0.000000 0.158447
0.022034 0.066132 0.000000
0.032745 0.066132 0.000000
0.043579 0.066132 0.000000
0.054504 0.066132 0.000000
0.065613 0.066132 0.000000
0.066132 0.055450 0.000000
0.066132 0.044098 0.000000
0.077606 0.040253 0.000000
0.089203 0.036407 0.000000
0.100922 0.032501 0.000000
0.112793 0.028564 0.000000
0.124786 0.024567 0.000000
0.136902 0.020508 0.000000
0.149170 0.016418 0.000000
0.161530 0.012299 0.000000
0.174042 0.008118 0.000000
0.186768 0.003876 0.000000
0.200134 0.000000 0.000580
0.214294 0.000000 0.005280
0.229370 0.000000 0.010315
0.245544 0.000000 0.015717
0.262909 0.000000 0.021515
0.281738 0.000000 0.027802
0.302277 0.000000 0.034607
0.324982 0.000000 0.042145
0.349792 0.000000 0.050476
0.376984 0.000000 0.059448
0.407410 0.000000 0.069611
0.442444 0.000000 0.081329
0.484802 0.000000 0.095398
0.540924 0.000000 0.114105
0.640015 0.000000 0.147186
0.025848 0.077606 0.000000
0.036560 0.077606 0.000000
0.047394 0.077606 0.000000
0.058350 0.077606 0.000000
0.069427 0.077606 0.000000
0.077606 0.074585 0.000000
0.077606 0.063232 0.000000
0.077606 0.051758 0.000000
0.089203 0.047882 0.000000
0.100922 0.043976 0.000000
0.112793 0.040009 0.000000
0.124786 0.036011 0.000000
0.136902 0.031982 0.000000
0.149170 0.027893 0.000000
0.161530 0.023773 0.000000
0.174042 0.019592 0.000000
0.186768 0.015381 0.000000
0.200134 0.010895 0.000000
0.214294 0.006165 0.000000
0.229370 0.001190 0.000000
0.245544 0.000000 0.004211
0.262909 0.000000 0.010010
0.281738 0.000000 0.016296
0.302277 0.000000 0.023102
0.324982 0.000000 0.030701
0.349792 0.000000 0.038940
0.376984 0.000000 0.048035
0.407410 0.000000 0.058197
0.442444 0.000000 0.069885
0.484802 0.000000 0.083923
0.540924 0.000000 0.102600
0.640015 0.000000 0.135620
0.029724 0.089203 0.000000
0.040436 0.089203 0.000000
0.051270 0.089203 0.000000
0.062195 0.089203 0.000000
0.073303 0.089203 0.000000
0.084503 0.089203 0.000000
0.089203 0.082550 0.000000
0.089203 0.071075 0.000000
0.089203 0.059479 0.000000
0.100922 0.055573 0.000000
0.112793 0.051605 0.000000
0.124786 0.047607 0.000000
0.136902 0.043579 0.000000
0.149170 0.039490 0.000000
0.161530 0.035370 0.000000
0.174042 0.031189 0.000000
0.186768 0.026947 0.000000
0.200134 0.022522 0.000000
0.214294 0.017792 0.000000
0.229370 0.012756 0.000000
0.245544 0.007385 0.000000
0.262909 0.001617 0.000000
0.281738 0.000000 0.004669
0.302277 0.000000 0.011505
0.324982 0.000000 0.019135
0.349792 0.000000 0.027313
0.376984 0.000000 0.036438
0.407410 0.000000 0.046539
0.442444 0.000000 0.058228
0.484802 0.000000 0.072327
0.540924 0.000000 0.091125
0.640015 0.000000 0.124054
0.033630 0.100922 0.000000
0.044342 0.100922 0.000000
0.055176 0.100922 0.000000
0.066101 0.100922 0.000000
0.077209 0.100922 0.000000
0.088409 0.100922 0.000000
0.099762 0.100922 0.000000
0.100922 0.090607 0.000000
0.100922 0.079010 0.000000
0.100922 0.067291 0.000000
0.112793 0.063324 0.000000
0.124786 0.059357 0.000000
0.136902 0.055267 0.000000
0.149170 0.051208 0.000000
0.161530 0.047089 0.000000
0.174042 0.042908 0.000000
0.186768 0.038666 0.000000
0.200134 0.034210 0.000000
0.214294 0.029510 0.000000
0.229370 0.024475 0.000000
0.245544 0.019135 0.000000
0.262909 0.013275 0.000000
0.281738 0.007019 0.000000
0.302277 0.000214 0.000000
0.324982 0.000000 0.007385
0.349792 0.000000 0.015625
0.376984 0.000000 0.024658
0.407410 0.000000 0.034821
0.442444 0.000000 0.046570
0.484802 0.000000 0.060608
0.540924 0.000000 0.079376
0.640015 0.000000 0.112335
0.037598 0.112793 0.000000
0.048309 0.112793 0.000000
0.059113 0.112793 0.000000
0.070068 0.112793 0.000000
0.081177 0.112793 0.000000
0.092346 0.112793 0.000000
0.103729 0.112793 0.000000
0.112793 0.110382 0.000000
0.112793 0.098816 0.000000
0.112793 0.087067 0.000000
0.112793 0.075195 0.000000
0.124786 0.071198 0.000000
0.136902 0.067169 0.000000
0.149170 0.063080 0.000000
0.161530 0.058960 0.000000
0.174042 0.054810 0.000000
0.186768 0.050568 0.000000
0.200134 0.046082 0.000000
0.214294 0.041382 0.000000
0.229370 0.036346 0.000000
0.245544 0.031006 0.000000
0.262909 0.025146 0.000000
0.281738 0.018921 0.000000
0.302277 0.012024 0.000000
0.324982 0.004517 0.000000
0.349792 0.000000 0.003754
0.376984 0.000000 0.012787
0.407410 0.000000 0.022980
0.442444 0.000000 0.034668
0.484802 0.000000 0.048767
0.540924 0.000000 0.067474
0.640015 0.000000 0.100464
0.041595 0.124786 0.000000
0.052307 0.124786 0.000000
0.063110 0.124786 0.000000
0.074066 0.124786 0.000000
0.085144 0.124786 0.000000
0.096375 0.124786 0.000000
0.107727 0.124786 0.000000
0.119171 0.124786 0.000000
0.124786 0.118774 0.000000
0.124786 0.107056 0.000000
0.124786 0.095215 0.000000
0.124786 0.083191 0.000000
0.136902 0.079193 0.000000
0.149170 0.075073 0.000000
0.161530 0.070953 0.000000
0.174042 0.066803 0.000000
0.186768 0.062561 0.000000
0.200134 0.058105 0.000000
0.214294 0.053375 0.000000
0.229370 0.048340 0.000000
0.245544 0.042969 0.000000
0.262909 0.037170 0.000000
0.281738 0.030884 0.000000
0.302277 0.024048 0.000000
0.324982 0.016510 0.000000
0.349792 0.008209 0.000000
0.376984 0.000000 0.000824
0.407410 0.000000 0.010956
0.442444 0.000000 0.022675
0.484802 0.000000 0.036804
0.540924 0.000000 0.055481
0.640015 0.000000 0.088440
0.045624 0.136902 0.000000
0.056305 0.136902 0.000000
0.067169 0.136902 0.000000
0.078064 0.136902 0.000000
0.089203 0.136902 0.000000
0.100403 0.136902 0.000000
0.111755 0.136902 0.000000
0.123230 0.136902 0.000000
0.134827 0.136902 0.000000
0.136902 0.127289 0.000000
0.136902 0.115387 0.000000
0.136902 0.103363 0.000000
0.136902 0.091278 0.000000
0.149170 0.087189 0.000000
0.161530 0.083099 0.000000
0.174042 0.078918 0.000000
0.186768 0.074646 0.000000
0.200134 0.070221 0.000000
0.214294 0.065491 0.000000
0.229370 0.060486 0.000000
0.245544 0.055084 0.000000
0.262909 0.049286 0.000000
0.281738 0.042999 0.000000
0.302277 0.036163 0.000000
0.324982 0.028564 0.000000
0.349792 0.020325 0.000000
0.376984 0.011230 0.000000
0.407410 0.001099 0.000000
0.442444 0.000000 0.010590
0.484802 0.000000 0.024628
0.540924 0.000000 0.043304
0.640015 0.000000 0.076416
0.049713 0.149170 0.000000
0.060425 0.149170 0.000000
0.071259 0.149170 0.000000
0.082184 0.149170 0.000000
0.093292 0.149170 0.000000
0.104492 0.149170 0.000000
0.115845 0.149170 0.000000
0.127319 0.149170 0.000000
0.138885 0.149170 0.000000
0.149170 0.147705 0.000000
0.149170 0.135834 0.000000
0.149170 0.123871 0.000000
0.149170 0.111725 0.000000
0.149170 0.099457 0.000000
0.161530 0.095367 0.000000
0.174042 0.091187 0.000000
0.186768 0.086914 0.000000
0.200134 0.082489 0.000000
0.214294 0.077759 0.000000
0.229370 0.072754 0.000000
0.245544 0.067322 0.000000
0.262909 0.061554 0.000000
0.281738 0.055298 0.000000
0.302277 0.048401 0.000000
0.324982 0.040863 0.000000
0.349792 0.032623 0.000000
0.376984 0.023560 0.000000
0.407410 0.013428 0.000000
0.442444 0.001740 0.000000
0.484802 0.000000 0.012421
0.540924 0.000000 0.031036
0.640015 0.000000 0.064056
0.053833 0.161530 0.000000
0.064545 0.161530 0.000000
0.075348 0.161530 0.000000
0.086273 0.161530 0.000000
0.097412 0.161530 0.000000
0.108612 0.161530 0.000000
0.119965 0.161530 0.000000
0.131439 0.161530 0.000000
0.143036 0.161530 0.000000
0.154755 0.161530 0.000000
0.161530 0.156433 0.000000
0.161530 0.144440 0.000000
0.161530 0.132294 0.000000
0.161530 0.120056 0.000000
0.161530 0.107697 0.000000
0.174042 0.103546 0.000000
0.186768 0.099304 0.000000
0.200134 0.094849 0.000000
0.214294 0.090088 0.000000
0.229370 0.085114 0.000000
0.245544 0.079742 0.000000
0.262909 0.073944 0.000000
0.281738 0.067627 0.000000
0.302277 0.060822 0.000000
0.324982 0.053253 0.000000
0.349792 0.044922 0.000000
0.376984 0.035889 0.000000
0.407410 0.025757 0.000000
0.442444 0.014038 0.000000
0.484802 0.000000 0.000000
0.540924 0.000000 0.018738
0.640015 0.000000 0.051727
0.058014 0.174042 0.000000
0.068695 0.174042 0.000000
0.079529 0.174042 0.000000
0.090454 0.174042 0.000000
0.101593 0.174042 0.000000
0.112762 0.174042 0.000000
0.124115 0.174042 0.000000
0.135590 0.174042 0.000000
0.147186 0.174042 0.000000
0.158905 0.174042 0.000000
0.170807 0.174042 0.000000
0.174042 0.165283 0.000000
0.174042 0.153168 0.000000
0.174042 0.140900 0.000000
0.174042 0.128540 0.000000
0.174042 0.116028 0.000000
0.186768 0.111816 0.000000
0.200134 0.107361 0.000000
0.214294 0.102661 0.000000
0.229370 0.097595 0.000000
0.245544 0.092194 0.000000
0.262909 0.086395 0.000000
0.281738 0.080139 0.000000
0.302277 0.073273 0.000000
0.324982 0.065765 0.000000
0.349792 0.057465 0.000000
0.376984 0.048401 0.000000
0.407410 0.038300 0.000000
0.442444 0.026581 0.000000
0.484802 0.012421 0.000000
0.540924 0.000000 0.006195
0.640015 0.000000 0.039215
0.062256 0.186768 0.000000
0.072968 0.186768 0.000000
0.083801 0.186768 0.000000
0.094696 0.186768 0.000000
0.105835 0.186768 0.000000
0.117004 0.186768 0.000000
0.128357 0.186768 0.000000
0.139862 0.186768 0.000000
0.151428 0.186768 0.000000
0.163147 0.186768 0.000000
0.175049 0.186768 0.000000
0.186768 0.186493 0.000000
0.186768 0.174408 0.000000
0.186768 0.162140 0.000000
0.186768 0.149750 0.000000
0.186768 0.137238 0.000000
0.186768 0.124512 0.000000
0.200134 0.120056 0.000000
0.214294 0.115356 0.000000
0.229370 0.110321 0.000000
0.245544 0.104980 0.000000
0.262909 0.099182 0.000000
0.281738 0.092865 0.000000
0.302277 0.086060 0.000000
0.324982 0.078461 0.000000
0.349792 0.070190 0.000000
0.376984 0.061127 0.000000
0.407410 0.051025 0.000000
0.442444 0.039307 0.000000
0.484802 0.025208 0.000000
0.540924 0.006470 0.000000
0.640015 0.000000 0.026550
0.066681 0.200134 0.000000
0.077393 0.200134 0.000000
0.088257 0.200134 0.000000
0.099182 0.200134 0.000000
0.110291 0.200134 0.000000
0.121460 0.200134 0.000000
0.132812 0.200134 0.000000
0.144287 0.200134 0.000000
0.155914 0.200134 0.000000
0.167603 0.200134 0.000000
0.179474 0.200134 0.000000
0.191498 0.200134 0.000000
0.200134 0.196655 0.000000
0.200134 0.184387 0.000000
0.200134 0.172028 0.000000
0.200134 0.159546 0.000000
0.200134 0.146820 0.000000
0.200134 0.133453 0.000000
0.214294 0.128693 0.000000
0.229370 0.123688 0.000000
0.245544 0.118286 0.000000
0.262909 0.112518 0.000000
0.281738 0.106262 0.000000
0.302277 0.099396 0.000000
0.324982 0.091797 0.000000
0.349792 0.083618 0.000000
0.376984 0.074463 0.000000
0.407410 0.064362 0.000000
0.442444 0.052704 0.000000
0.484802 0.038574 0.000000
0.540924 0.019806 0.000000
0.640015 0.000000 0.013123
0.071411 0.214294 0.000000
0.082153 0.214294 0.000000
0.092957 0.214294 0.000000
0.103912 0.214294 0.000000
0.114990 0.214294 0.000000
0.126190 0.214294 0.000000
0.137543 0.214294 0.000000
0.148987 0.214294 0.000000
0.160614 0.214294 0.000000
0.172333 0.214294 0.000000
0.184204 0.214294 0.000000
0.196198 0.214294 0.000000
0.208344 0.214294 0.000000
0.214294 0.208008 0.000000
0.214294 0.195679 0.000000
0.214294 0.183105 0.000000
0.214294 0.170410 0.000000
0.214294 0.157043 0.000000
0.214294 0.142883 0.000000
0.229370 0.137878 0.000000
0.245544 0.132477 0.000000
0.262909 0.126709 0.000000
0.281738 0.120361 0.000000
0.302277 0.113586 0.000000
0.324982 0.105988 0.000000
0.349792 0.097687 0.000000
0.376984 0.088623 0.000000
0.407410 0.078491 0.000000
0.442444 0.066864 0.000000
0.484802 0.052795 0.000000
0.540924 0.034058 0.000000
0.640015 0.000946 0.000000
0.076447 0.229370 0.000000
0.087128 0.229370 0.000000
0.097992 0.229370 0.000000
0.108917 0.229370 0.000000
0.119995 0.229370 0.000000
0.131195 0.229370 0.000000
0.142578 0.229370 0.000000
0.154053 0.229370 0.000000
0.165649 0.229370 0.000000
0.177338 0.229370 0.000000
0.189209 0.229370 0.000000
0.201202 0.229370 0.000000
0.213348 0.229370 0.000000
0.225616 0.229370 0.000000
0.229370 0.220734 0.000000
0.229370 0.208252 0.000000
0.229370 0.195557 0.000000
0.229370 0.182159 0.000000
0.229370 0.167999 0.000000
0.229370 0.152924 0.000000
0.245544 0.147522 0.000000
0.262909 0.141724 0.000000
0.281738 0.135498 0.000000
0.302277 0.128632 0.000000
0.324982 0.121063 0.000000
0.349792 0.112823 0.000000
0.376984 0.103729 0.000000
0.407410 0.093597 0.000000
0.442444 0.081879 0.000000
0.484802 0.067810 0.000000
0.540924 0.049133 0.000000
0.640015 0.016083 0.000000
0.081818 0.245544 0.000000
0.092560 0.245544 0.000000
0.103363 0.245544 0.000000
0.114319 0.245544 0.000000
0.125397 0.245544 0.000000
0.136627 0.245544 0.000000
0.147949 0.245544 0.000000
0.159454 0.245544 0.000000
0.171021 0.245544 0.000000
0.182770 0.245544 0.000000
0.194641 0.245544 0.000000
0.206635 0.245544 0.000000
0.218750 0.245544 0.000000
0.230988 0.245544 0.000000
0.243378 0.245544 0.000000
0.245544 0.235229 0.000000
0.245544 0.222473 0.000000
0.245544 0.209167 0.000000
0.245544 0.194946 0.000000
0.245544 0.179901 0.000000
0.245544 0.163727 0.000000
0.262909 0.157898 0.000000
0.281738 0.151672 0.000000
0.302277 0.144806 0.000000
0.324982 0.137268 0.000000
0.349792 0.128937 0.000000
0.376984 0.119934 0.000000
0.407410 0.109802 0.000000
0.442444 0.098083 0.000000
0.484802 0.084045 0.000000
0.540924 0.065247 0.000000
0.640015 0.032196 0.000000
0.087616 0.262909 0.000000
0.098328 0.262909 0.000000
0.109192 0.262909 0.000000
0.120087 0.262909 0.000000
0.131195 0.262909 0.000000
0.142365 0.262909 0.000000
0.153717 0.262909 0.000000
0.165222 0.262909 0.000000
0.176849 0.262909 0.000000
0.188507 0.262909 0.000000
0.200378 0.262909 0.000000
0.212402 0.262909 0.000000
0.224518 0.262909 0.000000
0.236786 0.262909 0.000000
0.249176 0.262909 0.000000
0.261627 0.262909 0.000000
0.262909 0.251434 0.000000
0.262909 0.238068 0.000000
0.262909 0.223877 0.000000
0.262909 0.208862 0.000000
0.262909 0.192688 0.000000
0.262909 0.175293 0.000000
0.281738 0.169006 0.000000
0.302277 0.162201 0.000000
0.324982 0.154633 0.000000
0.349792 0.146362 0.000000
0.376984 0.137329 0.000000
0.407410 0.127106 0.000000
0.442444 0.115479 0.000000
0.484802 0.101318 0.000000
0.540924 0.082672 0.000000
0.640015 0.049683 0.000000
0.093903 0.281738 0.000000
0.104614 0.281738 0.000000
0.115417 0.281738 0.000000
0.126343 0.281738 0.000000
0.137512 0.281738 0.000000
0.148651 0.281738 0.000000
0.160004 0.281738 0.000000
0.171478 0.281738 0.000000
0.183105 0.281738 0.000000
0.194794 0.281738 0.000000
0.206696 0.281738 0.000000
0.218658 0.281738 0.000000
0.230774 0.281738 0.000000
0.243073 0.281738 0.000000
0.255402 0.281738 0.000000
0.267914 0.281738 0.000000
0.280640 0.281738 0.000000
0.281738 0.269440 0.000000
0.281738 0.255341 0.000000
0.281738 0.240204 0.000000
0.281738 0.224030 0.000000
0.281738 0.206696 0.000000
0.281738 0.187836 0.000000
0.302277 0.181030 0.000000
0.324982 0.173431 0.000000
0.349792 0.165161 0.000000
0.376984 0.156097 0.000000
0.407410 0.146027 0.000000
0.442444 0.134277 0.000000
0.484802 0.120148 0.000000
0.540924 0.101410 0.000000
0.640015 0.068451 0.000000
0.100739 0.302277 0.000000
0.111450 0.302277 0.000000
0.122284 0.302277 0.000000
0.133209 0.302277 0.000000
0.144348 0.302277 0.000000
0.155487 0.302277 0.000000
0.166870 0.302277 0.000000
0.178375 0.302277 0.000000
0.189941 0.302277 0.000000
0.201691 0.302277 0.000000
0.213501 0.302277 0.000000
0.225525 0.302277 0.000000
0.237640 0.302277 0.000000
0.249878 0.302277 0.000000
0.262268 0.302277 0.000000
0.274750 0.302277 0.000000
0.287506 0.302277 0.000000
0.300873 0.302277 0.000000
0.302277 0.289520 0.000000
0.302277 0.274445 0.000000
0.302277 0.258301 0.000000
0.302277 0.240875 0.000000
0.302277 0.222046 0.000000
0.302277 0.201538 0.000000
0.324982 0.194000 0.000000
0.349792 0.185730 0.000000
0.376984 0.176605 0.000000
0.407410 0.166504 0.000000
0.442444 0.154785 0.000000
0.484802 0.140717 0.000000
0.540924 0.122040 0.000000
0.640015 0.089050 0.000000
0.108307 0.324982 0.000000
0.119019 0.324982 0.000000
0.129883 0.324982 0.000000
0.140747 0.324982 0.000000
0.151855 0.324982 0.000000
0.163055 0.324982 0.000000
0.174469 0.324982 0.000000
0.185883 0.324982 0.000000
0.197479 0.324982 0.000000
0.209229 0.324982 0.000000
0.221130 0.324982 0.000000
0.233093 0.324982 0.000000
0.245178 0.324982 0.000000
0.257477 0.324982 0.000000
0.269836 0.324982 0.000000
0.282379 0.324982 0.000000
0.295074 0.324982 0.000000
0.308411 0.324982 0.000000
0.322601 0.324982 0.000000
0.324982 0.312286 0.000000
0.324982 0.296112 0.000000
0.324982 0.278717 0.000000
0.324982 0.259918 0.000000
0.324982 0.239380 0.000000
0.324982 0.216675 0.000000
0.349792 0.208374 0.000000
0.376984 0.199341 0.000000
0.407410 0.189178 0.000000
0.442444 0.177582 0.000000
0.484802 0.163452 0.000000
0.540924 0.144745 0.000000
0.640015 0.111725 0.000000
0.116577 0.349792 0.000000
0.127258 0.349792 0.000000
0.138092 0.349792 0.000000
0.149017 0.349792 0.000000
0.160126 0.349792 0.000000
0.171295 0.349792 0.000000
0.182678 0.349792 0.000000
0.194183 0.349792 0.000000
0.205811 0.349792 0.000000
0.217499 0.349792 0.000000
0.229370 0.349792 0.000000
0.241333 0.349792 0.000000
0.253448 0.349792 0.000000
0.265747 0.349792 0.000000
0.278046 0.349792 0.000000
0.290619 0.349792 0.000000
0.303345 0.349792 0.000000
0.316742 0.349792 0.000000
0.330841 0.349792 0.000000
0.345947 0.349792 0.000000
0.349792 0.337494 0.000000
0.349792 0.320068 0.000000
0.349792 0.301300 0.000000
0.349792 0.280701 0.000000
0.349792 0.258087 0.000000
0.349792 0.233215 0.000000
0.376984 0.224213 0.000000
0.407410 0.214050 0.000000
0.442444 0.202332 0.000000
0.484802 0.188202 0.000000
0.540924 0.169556 0.000000
0.640015 0.136566 0.000000
0.125641 0.376984 0.000000
0.136322 0.376984 0.000000
0.147156 0.376984 0.000000
0.158112 0.376984 0.000000
0.169159 0.376984 0.000000
0.180389 0.376984 0.000000
0.191803 0.376984 0.000000
0.203217 0.376984 0.000000
0.214813 0.376984 0.000000
0.226593 0.376984 0.000000
0.238464 0.376984 0.000000
0.250427 0.376984 0.000000
0.262482 0.376984 0.000000
0.274811 0.376984 0.000000
0.287170 0.376984 0.000000
0.299683 0.376984 0.000000
0.312378 0.376984 0.000000
0.325714 0.376984 0.000000
0.339905 0.376984 0.000000
0.354980 0.376984 0.000000
0.371185 0.376984 0.000000
0.376984 0.365387 0.000000
0.376984 0.346619 0.000000
0.376984 0.326080 0.000000
0.376984 0.303345 0.000000
0.376984 0.278503 0.000000
0.376984 0.251343 0.000000
0.407410 0.241211 0.000000
0.442444 0.229553 0.000000
0.484802 0.215424 0.000000
0.540924 0.196777 0.000000
0.640015 0.163757 0.000000
0.135773 0.407410 0.000000
0.146515 0.407410 0.000000
0.157349 0.407410 0.000000
0.168182 0.407410 0.000000
0.179321 0.407410 0.000000
0.190582 0.407410 0.000000
0.201904 0.407410 0.000000
0.213348 0.407410 0.000000
0.224976 0.407410 0.000000
0.236725 0.407410 0.000000
0.248566 0.407410 0.000000
0.260590 0.407410 0.000000
0.272644 0.407410 0.000000
0.284973 0.407410 0.000000
0.297302 0.407410 0.000000
0.309845 0.407410 0.000000
0.322571 0.407410 0.000000
0.335907 0.407410 0.000000
