Console Band (OpenGL style) V3/Textures/ye.CUBE
#Created by: Adobe Photoshop Export Color Lookup Plugin
TITLE "ye"
#LUT size
LUT_3D_SIZE 5
#data domain
#LUT data points
DOMAIN_MIN 0.000000 0.000000 0.000000
DOMAIN_MAX 0.903226 0.903226 0.903226
0.000000 0.000000 0.000000
0.077606 0.000000 0.025848
0.161530 0.000000 0.053833
0.262909 0.000000 0.087616
0.442444 0.000000 0.147430
0.025848 0.077606 0.000000
0.077606 0.051758 0.000000
0.161530 0.023773 0.000000
0.262909 0.000000 0.010010
0.442444 0.000000 0.069885
0.053833 0.161530 0.000000
0.131439 0.161530 0.000000
0.161530 0.107697 0.000000
0.262909 0.073944 0.000000
0.442444 0.014038 0.000000
0.087616 0.262909 0.000000
0.165222 0.262909 0.000000
0.249176 0.262909 0.000000
0.262909 0.175293 0.000000
0.442444 0.115479 0.000000
0.147430 0.442444 0.000000
0.225006 0.442444 0.000000
0.308929 0.442444 0.000000
0.410370 0.442444 0.000000
0.442444 0.295013 0.000000
0.000000 0.025848 0.077606
0.051758 0.000000 0.077606
0.161530 0.000000 0.131439
0.262909 0.000000 0.165222
0.442444 0.000000 0.225006
0.000000 0.077606 0.051758
0.077606 0.077606 0.077606
0.192841 0.046295 0.095123
0.332031 0.008484 0.116302
0.520050 0.000000 0.173309
0.000000 0.161530 0.023773
0.095123 0.192841 0.046295
0.192841 0.144012 0.046295
0.332031 0.047180 0.008484
0.520050 0.000000 0.053711
0.010010 0.262909 0.000000
0.116302 0.332031 0.008484
0.262848 0.332031 0.008484
0.332031 0.224213 0.008484
0.520050 0.090790 0.000000
0.069885 0.442444 0.000000
0.173309 0.520050 0.000000
0.292908 0.520050 0.000000
0.437408 0.520050 0.000000
0.520050 0.346741 0.000000
0.000000 0.053833 0.161530
0.023773 0.000000 0.161530
0.107697 0.000000 0.161530
0.262909 0.000000 0.249176
0.442444 0.000000 0.308929
0.000000 0.131439 0.161530
0.046295 0.095123 0.192841
0.144012 0.046295 0.192841
0.332031 0.008484 0.262848
0.520050 0.000000 0.292908
0.000000 0.161530 0.107697
0.046295 0.192841 0.144012
0.161530 0.161530 0.161530
0.300720 0.123688 0.182678
0.547241 0.056732 0.220184
0.000000 0.262909 0.073944
0.008484 0.332031 0.047180
0.182678 0.300720 0.123688
0.300720 0.241730 0.123688
0.547241 0.070251 0.056732
0.000000 0.442444 0.014038
0.053711 0.520050 0.000000
0.220184 0.547241 0.056732
0.397186 0.547241 0.056732
0.547241 0.383789 0.056732
0.000000 0.087616 0.262909
0.000000 0.010010 0.262909
0.073944 0.000000 0.262909
0.175293 0.000000 0.262909
0.442444 0.000000 0.410370
0.000000 0.165222 0.262909
0.008484 0.116302 0.332031
0.047180 0.008484 0.332031
0.224213 0.008484 0.332031
0.520050 0.000000 0.437408
0.000000 0.249176 0.262909
0.008484 0.262848 0.332031
0.123688 0.182678 0.300720
0.241730 0.123688 0.300720
0.547241 0.056732 0.397186
0.000000 0.262909 0.175293
0.008484 0.332031 0.224213
0.123688 0.300720 0.241730
0.262909 0.262909 0.262909
0.509399 0.195923 0.300385
0.000000 0.442444 0.115479
0.000000 0.520050 0.090790
0.056732 0.547241 0.070251
0.300385 0.509399 0.195923
0.509399 0.404938 0.195923
0.000000 0.147430 0.442444
0.000000 0.069885 0.442444
0.014038 0.000000 0.442444
0.115479 0.000000 0.442444
0.295013 0.000000 0.442444
0.000000 0.225006 0.442444
0.000000 0.173309 0.520050
0.000000 0.053711 0.520050
0.090790 0.000000 0.520050
0.346741 0.000000 0.520050
0.000000 0.308929 0.442444
0.000000 0.292908 0.520050
0.056732 0.220184 0.547241
0.070251 0.056732 0.547241
0.383789 0.056732 0.547241
0.000000 0.410370 0.442444
0.000000 0.437408 0.520050
0.056732 0.397186 0.547241
0.195923 0.300385 0.509399
0.404938 0.195923 0.509399
0.000000 0.442444 0.295013
0.000000 0.520050 0.346741
0.056732 0.547241 0.383789
0.195923 0.509399 0.404938
0.442444 0.442444 0.442444
