Console Band (OpenGL style) V3/Textures/ye.CUBE
#Created by: Adobe Photoshop Export Color Lookup Plugin
TITLE "ye"
#LUT size
LUT_3D_SIZE 8
#data domain
#LUT data points
DOMAIN_MIN 0.000000 0.000000 0.000000
DOMAIN_MAX 0.903226 0.903226 0.903226
0.000000 0.000000 0.000000
0.043579 0.000000 0.014526
0.089203 0.000000 0.029724
0.136902 0.000000 0.045624
0.186768 0.000000 0.062256
0.245544 0.000000 0.081818
0.324982 0.000000 0.108307
0.442444 0.000000 0.147430
0.014526 0.043579 0.000000
0.043579 0.029053 0.000000
0.089203 0.013855 0.000000
0.136902 0.000000 0.002045
0.186768 0.000000 0.018646
0.245544 0.000000 0.038239
0.324982 0.000000 0.064728
0.442444 0.000000 0.103912
0.029724 0.089203 0.000000
0.073303 0.089203 0.000000
0.089203 0.059479 0.000000
0.136902 0.043579 0.000000
0.186768 0.026947 0.000000
0.245544 0.007385 0.000000
0.324982 0.000000 0.019135
0.442444 0.000000 0.058228
0.045624 0.136902 0.000000
0.089203 0.136902 0.000000
0.134827 0.136902 0.000000
0.136902 0.091278 0.000000
0.186768 0.074646 0.000000
0.245544 0.055084 0.000000
0.324982 0.028564 0.000000
0.442444 0.000000 0.010590
0.062256 0.186768 0.000000
0.105835 0.186768 0.000000
0.151428 0.186768 0.000000
0.186768 0.174408 0.000000
0.186768 0.124512 0.000000
0.245544 0.104980 0.000000
0.324982 0.078461 0.000000
0.442444 0.039307 0.000000
0.081818 0.245544 0.000000
0.125397 0.245544 0.000000
0.171021 0.245544 0.000000
0.218750 0.245544 0.000000
0.245544 0.222473 0.000000
0.245544 0.163727 0.000000
0.324982 0.137268 0.000000
0.442444 0.098083 0.000000
0.108307 0.324982 0.000000
0.151855 0.324982 0.000000
0.197479 0.324982 0.000000
0.245178 0.324982 0.000000
0.295074 0.324982 0.000000
0.324982 0.296112 0.000000
0.324982 0.216675 0.000000
0.442444 0.177582 0.000000
0.147430 0.442444 0.000000
0.190979 0.442444 0.000000
0.236664 0.442444 0.000000
0.284302 0.442444 0.000000
0.334198 0.442444 0.000000
0.392975 0.442444 0.000000
0.442444 0.412415 0.000000
0.442444 0.295013 0.000000
0.000000 0.014526 0.043579
0.029053 0.000000 0.043579
0.089203 0.000000 0.073303
0.136902 0.000000 0.089203
0.186768 0.000000 0.105835
0.245544 0.000000 0.125397
0.324982 0.000000 0.151855
0.442444 0.000000 0.190979
0.000000 0.043579 0.029053
0.043579 0.043579 0.043579
0.106201 0.026550 0.053101
0.171722 0.008759 0.063080
0.230347 0.000000 0.076752
0.289124 0.000000 0.096344
0.368561 0.000000 0.122833
0.486023 0.000000 0.161957
0.000000 0.089203 0.013855
0.053101 0.106201 0.026550
0.106201 0.079651 0.026550
0.171722 0.034088 0.008759
0.230347 0.000000 0.003387
0.289124 0.000000 0.031067
0.368561 0.000000 0.063080
0.486023 0.000000 0.106323
0.002045 0.136902 0.000000
0.063080 0.171722 0.008759
0.142731 0.171722 0.008759
0.171722 0.117401 0.008759
0.230347 0.073395 0.000000
0.289124 0.037262 0.000000
0.368561 0.000000 0.000641
0.486023 0.000000 0.048279
0.018646 0.186768 0.000000
0.076752 0.230347 0.000000
0.150146 0.230347 0.000000
0.226929 0.230347 0.000000
0.230347 0.153595 0.000000
0.289124 0.108643 0.000000
0.368561 0.064697 0.000000
0.486023 0.012451 0.000000
0.038239 0.245544 0.000000
0.096344 0.289124 0.000000
0.161652 0.289124 0.000000
0.229980 0.289124 0.000000
0.289124 0.276917 0.000000
0.289124 0.192780 0.000000
0.368561 0.141724 0.000000
0.486023 0.084137 0.000000
0.064728 0.324982 0.000000
0.122833 0.368561 0.000000
0.182556 0.368561 0.000000
0.245026 0.368561 0.000000
0.310333 0.368561 0.000000
0.368561 0.349762 0.000000
0.368561 0.245728 0.000000
0.486023 0.180939 0.000000
0.103912 0.442444 0.000000
0.161957 0.486023 0.000000
0.217621 0.486023 0.000000
0.275635 0.486023 0.000000
0.336395 0.486023 0.000000
0.408051 0.486023 0.000000
0.486023 0.467163 0.000000
0.486023 0.324066 0.000000
0.000000 0.029724 0.089203
0.013855 0.000000 0.089203
0.059479 0.000000 0.089203
0.136902 0.000000 0.134827
0.186768 0.000000 0.151428
0.245544 0.000000 0.171021
0.324982 0.000000 0.197479
0.442444 0.000000 0.236664
0.000000 0.073303 0.089203
0.026550 0.053101 0.106201
0.079651 0.026550 0.106201
0.171722 0.008759 0.142731
0.230347 0.000000 0.150146
0.289124 0.000000 0.161652
0.368561 0.000000 0.182556
0.486023 0.000000 0.217621
0.000000 0.089203 0.059479
0.026550 0.106201 0.079651
0.089203 0.089203 0.089203
0.154694 0.071411 0.099152
0.223145 0.052795 0.109558
0.303864 0.030884 0.121857
0.412933 0.001251 0.138458
0.531647 0.000000 0.177185
0.000000 0.136902 0.043579
0.008759 0.171722 0.034088
0.099152 0.154694 0.071411
0.154694 0.126953 0.071411
0.223145 0.079315 0.052795
0.303864 0.030884 0.038544
0.412933 0.001251 0.055115
0.531647 0.000000 0.105408
0.000000 0.186768 0.026947
0.003387 0.230347 0.000000
0.109558 0.223145 0.052795
0.192871 0.223145 0.052795
0.223145 0.166382 0.052795
0.303864 0.110260 0.030884
0.412933 0.034424 0.001251
0.531647 0.000000 0.030365
0.000000 0.245544 0.007385
0.031067 0.289124 0.000000
0.121857 0.303864 0.030884
0.205170 0.303864 0.030884
0.292206 0.303864 0.030884
0.303864 0.212891 0.030884
0.412933 0.137024 0.001251
0.531647 0.058136 0.000000
0.019135 0.324982 0.000000
0.063080 0.368561 0.000000
0.138458 0.412933 0.001251
0.221771 0.412933 0.001251
0.308807 0.412933 0.001251
0.411438 0.412933 0.001251
0.412933 0.275726 0.001251
0.531647 0.177704 0.000000
0.058228 0.442444 0.000000
0.106323 0.486023 0.000000
0.177185 0.531647 0.000000
0.248962 0.531647 0.000000
0.323975 0.531647 0.000000
0.412506 0.531647 0.000000
0.531647 0.531250 0.000000
0.531647 0.354462 0.000000
0.000000 0.045624 0.136902
0.000000 0.002045 0.136902
0.043579 0.000000 0.136902
0.091278 0.000000 0.136902
0.174408 0.000000 0.186768
0.245544 0.000000 0.218750
0.324982 0.000000 0.245178
0.442444 0.000000 0.284302
0.000000 0.089203 0.136902
0.008759 0.063080 0.171722
0.034088 0.008759 0.171722
0.117401 0.008759 0.171722
0.230347 0.000000 0.226929
0.289124 0.000000 0.229980
0.368561 0.000000 0.245026
0.486023 0.000000 0.275635
0.000000 0.134827 0.136902
0.008759 0.142731 0.171722
0.071411 0.099152 0.154694
0.126953 0.071411 0.154694
0.223145 0.052795 0.192871
0.303864 0.030884 0.205170
0.412933 0.001251 0.221771
0.531647 0.000000 0.248962
0.000000 0.136902 0.091278
0.008759 0.171722 0.117401
0.071411 0.154694 0.126953
0.136902 0.136902 0.136902
0.205353 0.118286 0.147308
0.286072 0.096375 0.159576
0.395142 0.066742 0.176178
0.556427 0.022919 0.200714
0.000000 0.186768 0.074646
0.000000 0.230347 0.073395
0.052795 0.223145 0.079315
0.147308 0.205353 0.118286
0.205353 0.176331 0.118286
0.286072 0.120239 0.096375
0.395142 0.066742 0.089111
0.556427 0.022919 0.113708
0.000000 0.245544 0.055084
0.000000 0.289124 0.037262
0.038544 0.303864 0.030884
0.159576 0.286072 0.096375
0.246674 0.286072 0.096375
0.286072 0.222870 0.096375
0.395142 0.147003 0.066742
0.556427 0.034760 0.022919
0.000000 0.324982 0.028564
0.000641 0.368561 0.000000
0.055115 0.412933 0.001251
0.176178 0.395142 0.066742
0.263245 0.395142 0.066742
0.365875 0.395142 0.066742
0.395142 0.285706 0.066742
0.556427 0.173492 0.022919
0.010590 0.442444 0.000000
0.048279 0.486023 0.000000
0.105408 0.531647 0.000000
0.200714 0.556427 0.022919
0.287720 0.556427 0.022919
0.390350 0.556427 0.022919
0.529083 0.556427 0.022919
0.556427 0.378632 0.022919
0.000000 0.062256 0.186768
0.000000 0.018646 0.186768
0.026947 0.000000 0.186768
0.074646 0.000000 0.186768
0.124512 0.000000 0.186768
0.222473 0.000000 0.245544
0.324982 0.000000 0.295074
0.442444 0.000000 0.334198
0.000000 0.105835 0.186768
0.000000 0.076752 0.230347
0.000000 0.003387 0.230347
0.073395 0.000000 0.230347
0.153595 0.000000 0.230347
0.276917 0.000000 0.289124
0.368561 0.000000 0.310333
0.486023 0.000000 0.336395
0.000000 0.151428 0.186768
0.000000 0.150146 0.230347
0.052795 0.109558 0.223145
0.079315 0.052795 0.223145
0.166382 0.052795 0.223145
0.303864 0.030884 0.292206
0.412933 0.001251 0.308807
0.531647 0.000000 0.323975
0.000000 0.186768 0.174408
0.000000 0.226929 0.230347
0.052795 0.192871 0.223145
0.118286 0.147308 0.205353
0.176331 0.118286 0.205353
0.286072 0.096375 0.246674
0.395142 0.066742 0.263245
0.556427 0.022919 0.287720
0.000000 0.186768 0.124512
0.000000 0.230347 0.153595
0.052795 0.223145 0.166382
0.118286 0.205353 0.176331
0.186768 0.186768 0.186768
0.267456 0.164825 0.199036
0.376526 0.135193 0.215607
0.537811 0.091370 0.240143
0.000000 0.245544 0.104980
0.000000 0.289124 0.108643
0.030884 0.303864 0.110260
0.096375 0.286072 0.120239
0.199036 0.267456 0.164825
0.267456 0.233246 0.164825
0.376526 0.157410 0.135193
0.537811 0.091370 0.137482
0.000000 0.324982 0.078461
0.000000 0.368561 0.064697
0.001251 0.412933 0.034424
0.089111 0.395142 0.066742
0.215607 0.376526 0.135193
0.318268 0.376526 0.135193
0.376526 0.296112 0.135193
0.537811 0.183899 0.091370
0.000000 0.442444 0.039307
0.000000 0.486023 0.012451
0.030365 0.531647 0.000000
0.113708 0.556427 0.022919
0.240143 0.537811 0.091370
0.342834 0.537811 0.091370
0.481476 0.537811 0.091370
0.537811 0.389038 0.091370
0.000000 0.081818 0.245544
0.000000 0.038239 0.245544
0.007385 0.000000 0.245544
0.055084 0.000000 0.245544
0.104980 0.000000 0.245544
0.163727 0.000000 0.245544
0.296112 0.000000 0.324982
0.442444 0.000000 0.392975
0.000000 0.125397 0.245544
0.000000 0.096344 0.289124
0.000000 0.031067 0.289124
0.037262 0.000000 0.289124
0.108643 0.000000 0.289124
0.192780 0.000000 0.289124
0.349762 0.000000 0.368561
0.486023 0.000000 0.408051
0.000000 0.171021 0.245544
0.000000 0.161652 0.289124
0.030884 0.121857 0.303864
0.030884 0.038544 0.303864
0.110260 0.030884 0.303864
0.212891 0.030884 0.303864
0.412933 0.001251 0.411438
0.531647 0.000000 0.412506
0.000000 0.218750 0.245544
0.000000 0.229980 0.289124
0.030884 0.205170 0.303864
0.096375 0.159576 0.286072
0.120239 0.096375 0.286072
0.222870 0.096375 0.286072
0.395142 0.066742 0.365875
0.556427 0.022919 0.390350
0.000000 0.245544 0.222473
0.000000 0.289124 0.276917
0.030884 0.292206 0.303864
0.096375 0.246674 0.286072
0.164825 0.199036 0.267456
0.233246 0.164825 0.267456
0.376526 0.135193 0.318268
0.537811 0.091370 0.342834
0.000000 0.245544 0.163727
0.000000 0.289124 0.192780
0.030884 0.303864 0.212891
0.096375 0.286072 0.222870
0.164825 0.267456 0.233246
0.245544 0.245544 0.245544
0.354614 0.215912 0.262146
0.515900 0.172089 0.286652
0.000000 0.324982 0.137268
0.000000 0.368561 0.141724
0.001251 0.412933 0.137024
0.066742 0.395142 0.147003
0.135193 0.376526 0.157410
0.262146 0.354614 0.215912
0.354614 0.308380 0.215912
0.515900 0.196167 0.172089
0.000000 0.442444 0.098083
0.000000 0.486023 0.084137
0.000000 0.531647 0.058136
0.022919 0.556427 0.034760
0.137482 0.537811 0.091370
0.286652 0.515900 0.172089
0.425323 0.515900 0.172089
0.515900 0.401337 0.172089
0.000000 0.108307 0.324982
0.000000 0.064728 0.324982
0.000000 0.019135 0.324982
0.028564 0.000000 0.324982
0.078461 0.000000 0.324982
0.137268 0.000000 0.324982
0.216675 0.000000 0.324982
0.412415 0.000000 0.442444
0.000000 0.151855 0.324982
0.000000 0.122833 0.368561
0.000000 0.063080 0.368561
0.000000 0.000641 0.368561
0.064697 0.000000 0.368561
0.141724 0.000000 0.368561
0.245728 0.000000 0.368561
0.467163 0.000000 0.486023
0.000000 0.197479 0.324982
0.000000 0.182556 0.368561
0.001251 0.138458 0.412933
0.001251 0.055115 0.412933
0.034424 0.001251 0.412933
0.137024 0.001251 0.412933
0.275726 0.001251 0.412933
0.531250 0.000000 0.531647
0.000000 0.245178 0.324982
0.000000 0.245026 0.368561
0.001251 0.221771 0.412933
0.066742 0.176178 0.395142
0.066742 0.089111 0.395142
0.147003 0.066742 0.395142
0.285706 0.066742 0.395142
0.556427 0.022919 0.529083
0.000000 0.295074 0.324982
0.000000 0.310333 0.368561
0.001251 0.308807 0.412933
0.066742 0.263245 0.395142
0.135193 0.215607 0.376526
0.157410 0.135193 0.376526
0.296112 0.135193 0.376526
0.537811 0.091370 0.481476
0.000000 0.324982 0.296112
0.000000 0.368561 0.349762
0.001251 0.411438 0.412933
0.066742 0.365875 0.395142
0.135193 0.318268 0.376526
0.215912 0.262146 0.354614
0.308380 0.215912 0.354614
0.515900 0.172089 0.425323
0.000000 0.324982 0.216675
0.000000 0.368561 0.245728
0.001251 0.412933 0.275726
0.066742 0.395142 0.285706
0.135193 0.376526 0.296112
0.215912 0.354614 0.308380
0.324982 0.324982 0.324982
0.486267 0.281158 0.349518
0.000000 0.442444 0.177582
0.000000 0.486023 0.180939
0.000000 0.531647 0.177704
0.022919 0.556427 0.173492
0.091370 0.537811 0.183899
0.172089 0.515900 0.196167
0.349518 0.486267 0.281158
0.486267 0.417908 0.281158
0.000000 0.147430 0.442444
0.000000 0.103912 0.442444
0.000000 0.058228 0.442444
0.000000 0.010590 0.442444
0.039307 0.000000 0.442444
0.098083 0.000000 0.442444
0.177582 0.000000 0.442444
0.295013 0.000000 0.442444
0.000000 0.190979 0.442444
0.000000 0.161957 0.486023
0.000000 0.106323 0.486023
0.000000 0.048279 0.486023
0.012451 0.000000 0.486023
0.084137 0.000000 0.486023
0.180939 0.000000 0.486023
0.324066 0.000000 0.486023
0.000000 0.236664 0.442444
0.000000 0.217621 0.486023
0.000000 0.177185 0.531647
0.000000 0.105408 0.531647
0.000000 0.030365 0.531647
0.058136 0.000000 0.531647
0.177704 0.000000 0.531647
0.354462 0.000000 0.531647
0.000000 0.284302 0.442444
0.000000 0.275635 0.486023
0.000000 0.248962 0.531647
0.022919 0.200714 0.556427
0.022919 0.113708 0.556427
0.034760 0.022919 0.556427
0.173492 0.022919 0.556427
0.378632 0.022919 0.556427
0.000000 0.334198 0.442444
0.000000 0.336395 0.486023
0.000000 0.323975 0.531647
0.022919 0.287720 0.556427
0.091370 0.240143 0.537811
0.091370 0.137482 0.537811
0.183899 0.091370 0.537811
0.389038 0.091370 0.537811
0.000000 0.392975 0.442444
0.000000 0.408051 0.486023
0.000000 0.412506 0.531647
0.022919 0.390350 0.556427
0.091370 0.342834 0.537811
0.172089 0.286652 0.515900
0.196167 0.172089 0.515900
0.401337 0.172089 0.515900
0.000000 0.442444 0.412415
0.000000 0.486023 0.467163
0.000000 0.531647 0.531250
0.022919 0.529083 0.556427
0.091370 0.481476 0.537811
0.172089 0.425323 0.515900
0.281158 0.349518 0.486267
0.417908 0.281158 0.486267
0.000000 0.442444 0.295013
0.000000 0.486023 0.324066
0.000000 0.531647 0.354462
0.022919 0.556427 0.378632
0.091370 0.537811 0.389038
0.172089 0.515900 0.401337
0.281158 0.486267 0.417908
0.442444 0.442444 0.442444
